;FLAVOR:UltiGCode
;TIME:6751      
;MATERIAL:24341     
;MATERIAL2:0         

;Layer count: 218
;LAYER:0
M107
G0 F9000 X46.666 Y39.780 Z0.300
;TYPE:SKIRT
G1 F1800 X48.476 Y37.970 E0.38396
G1 X48.876 Y37.770 E0.45104
G1 X49.075 Y37.571 E0.49326
G1 X49.475 Y37.371 E0.56034
G1 X50.196 Y36.649 E0.71339
G1 X51.797 Y36.249 E0.96092
G1 X52.580 Y35.466 E1.12702
G1 X57.558 Y35.466 E1.87372
G1 X58.774 Y35.872 E2.06602
G1 X58.996 Y35.649 E2.11322
G1 X60.710 Y35.221 E2.37821
G1 X61.774 Y34.866 E2.54646
G1 X66.558 Y34.866 E3.26406
G1 X68.032 Y35.358 E3.49715
G1 X69.656 Y36.170 E3.76951
G1 X69.966 Y36.480 E3.83527
G1 X70.380 Y36.066 E3.92309
G1 X72.268 Y36.066 E4.20629
G1 X75.257 Y36.296 E4.65597
G1 X76.733 Y36.591 E4.88175
G1 X77.832 Y36.958 E5.05554
G1 X78.504 Y37.294 E5.16824
G1 X78.992 Y37.306 E5.24146
G1 X82.066 Y40.380 E5.89356
G1 X82.066 Y40.466 E5.90646
G1 X83.266 Y40.466 E6.08646
G1 X83.266 Y43.380 E6.52356
G1 X83.466 Y43.580 E6.56598
G1 X83.466 Y47.029 E7.08333
G1 X83.572 Y47.286 E7.12503
G1 X83.990 Y47.704 E7.21371
G1 X85.466 Y47.726 E7.43513
G1 X85.466 Y49.386 E7.68413
G1 X85.552 Y49.472 E7.70237
G1 X85.497 Y49.610 E7.72466
G1 X85.782 Y49.895 E7.78511
G1 X85.605 Y50.319 E7.85403
G1 X86.582 Y51.296 E8.06129
G1 X88.466 Y51.324 E8.34392
G1 X88.466 Y51.466 E8.36522
G1 X88.539 Y51.466 E8.37617
G1 X88.559 Y52.085 E8.46907
G1 X88.866 Y52.104 E8.51520
G1 X88.866 Y52.670 E8.60010
G1 X89.147 Y52.686 E8.64232
G1 X89.142 Y52.924 E8.67803
G1 X89.266 Y52.926 E8.69663
G1 X89.266 Y57.716 E9.41513
G1 X89.276 Y61.757 E10.02129
G1 X89.066 Y61.757 E10.05279
G1 X89.066 Y61.852 E10.06704
G1 X88.866 Y62.052 E10.10946
G1 X88.866 Y62.452 E10.16946
G1 X88.666 Y62.652 E10.21189
G1 X88.666 Y65.107 E10.58014
G1 X88.266 Y65.113 E10.64014
G1 X88.266 Y68.852 E11.20099
G1 X88.066 Y69.052 E11.24342
G1 X88.066 Y69.252 E11.27342
G1 X87.866 Y69.452 E11.31585
G1 X87.866 Y71.907 E11.68410
G1 X85.983 Y71.935 E11.96658
G1 X85.466 Y72.452 E12.07625
G1 X85.466 Y76.252 E12.64625
G1 X85.066 Y76.652 E12.73110
G1 X85.066 Y77.252 E12.82110
G1 X84.666 Y77.652 E12.90596
G1 X84.666 Y78.052 E12.96596
G1 X84.061 Y78.657 E13.09430
G1 X84.053 Y80.899 E13.43060
G1 X83.657 Y80.927 E13.49015
G1 X83.656 Y81.272 E13.54190
G1 X83.257 Y81.303 E13.60193
G1 X83.256 Y81.652 E13.65428
G1 X81.121 Y81.829 E13.97563
G1 X79.432 Y82.674 E14.25891
G1 X77.650 Y83.269 E14.54072
G1 X77.503 Y83.415 E14.57180
G1 X77.600 Y84.387 E14.71832
G1 X75.142 Y84.879 E15.09434
G1 X75.170 Y84.948 E15.10551
G1 X75.066 Y85.052 E15.12757
G1 X75.066 Y86.068 E15.27997
G1 X74.866 Y86.073 E15.30998
G1 X74.866 Y86.869 E15.42938
G1 X74.666 Y86.874 E15.45939
G1 X74.666 Y87.258 E15.51699
G1 X74.466 Y87.264 E15.54700
G1 X74.466 Y87.668 E15.60760
G1 X74.066 Y87.678 E15.66762
G1 X74.066 Y88.269 E15.75627
G1 X71.997 Y88.321 E16.06672
G1 X71.256 Y89.062 E16.22391
G1 X70.856 Y89.262 E16.29099
G1 X70.456 Y89.662 E16.37584
G1 X68.832 Y90.474 E16.64819
G1 X68.232 Y90.674 E16.74306
G1 X67.248 Y91.166 E16.90808
G1 X63.174 Y91.166 E17.51918
G1 X61.514 Y90.612 E17.78168
G1 X60.742 Y90.419 E17.90105
G1 X60.048 Y90.766 E18.01744
G1 X57.036 Y90.766 E18.46924
G1 X53.234 Y90.420 E19.04189
G1 X52.476 Y89.662 E19.20269
G1 X50.876 Y88.862 E19.47102
G1 X48.669 Y86.655 E19.93919
G1 X45.669 Y86.055 E20.39810
G1 X45.076 Y85.462 E20.52390
G1 X44.676 Y85.262 E20.59098
G1 X44.476 Y85.062 E20.63341
G1 X43.676 Y84.662 E20.76757
G1 X41.866 Y82.852 E21.15153
G1 X41.866 Y82.652 E21.18153
G1 X40.666 Y81.452 E21.43609
G1 X40.666 Y81.052 E21.49609
G1 X40.466 Y80.852 E21.53851
G1 X40.466 Y80.652 E21.56851
G1 X40.266 Y80.452 E21.61094
G1 X40.266 Y80.052 E21.67094
G1 X40.066 Y79.852 E21.71337
G1 X40.066 Y74.652 E22.49337
G1 X39.866 Y74.452 E22.53579
G1 X39.866 Y74.052 E22.59579
G1 X39.666 Y73.852 E22.63822
G1 X39.666 Y70.180 E23.18902
G1 X39.930 Y69.916 E23.24502
G1 X38.266 Y68.252 E23.59801
G1 X38.266 Y68.052 E23.62801
G1 X38.066 Y67.852 E23.67044
G1 X38.066 Y67.652 E23.70044
G1 X37.866 Y67.452 E23.74286
G1 X37.866 Y67.252 E23.77286
G1 X37.666 Y67.052 E23.81529
G1 X37.666 Y66.852 E23.84529
G1 X37.266 Y66.452 E23.93014
G1 X37.266 Y65.652 E24.05014
G1 X37.066 Y65.452 E24.09257
G1 X37.066 Y60.580 E24.82337
G1 X37.266 Y60.380 E24.86580
G1 X37.266 Y59.380 E25.01580
G1 X37.666 Y58.980 E25.10065
G1 X37.666 Y58.780 E25.13065
G1 X37.866 Y58.580 E25.17307
G1 X37.866 Y58.380 E25.20307
G1 X38.066 Y58.180 E25.24550
G1 X38.066 Y57.980 E25.27550
G1 X38.266 Y57.780 E25.31793
G1 X38.266 Y57.580 E25.34793
G1 X40.430 Y55.416 E25.80698
G1 X40.230 Y55.216 E25.84941
G1 X42.666 Y52.780 E26.36616
G1 X42.666 Y52.580 E26.39616
G1 X43.266 Y51.980 E26.52344
G1 X43.266 Y51.780 E26.55344
G1 X45.283 Y49.763 E26.98131
G1 X45.354 Y49.740 E26.99251
G1 X45.266 Y49.652 E27.01117
G1 X45.266 Y49.252 E27.07117
G1 X45.066 Y49.052 E27.11360
G1 X45.066 Y46.652 E27.47360
G1 X43.230 Y44.816 E27.86307
G1 X43.630 Y44.416 E27.94793
G1 X43.430 Y44.216 E27.99035
G1 X45.466 Y42.180 E28.42225
G1 X45.466 Y41.580 E28.51225
G1 X45.866 Y41.180 E28.59711
G1 X45.866 Y40.980 E28.62711
G1 X46.266 Y40.580 E28.71196
G1 X46.266 Y40.380 E28.74196
G1 X46.666 Y39.980 E28.82681
G1 X46.666 Y39.780 E28.85681
G10
G0 F9000 X46.141 Y66.555
;TYPE:WALL-OUTER
G11
G1 F1800 X44.426 Y68.843 E29.28572
G1 X44.530 Y68.502 E29.33920
G1 X45.683 Y66.885 E29.63710
G1 X46.141 Y66.555 E29.72177
G10
G0 F9000 X60.335 Y66.320
;TYPE:WALL-INNER
G11
G1 F1800 X60.584 Y64.465 E30.00252
G1 X60.663 Y63.892 E30.08928
G1 X61.613 Y65.142 E30.32478
G1 X62.205 Y66.842 E30.59480
G1 X62.252 Y68.700 E30.87359
G1 X61.721 Y70.455 E31.14863
G1 X60.666 Y71.969 E31.42543
G1 X59.506 Y72.843 E31.64329
G1 X59.579 Y72.940 E31.66150
G1 X59.341 Y73.022 E31.69926
G1 X59.431 Y72.830 E31.73106
G1 X59.760 Y70.481 E32.08685
G1 X59.914 Y69.332 E32.26074
G1 X60.046 Y68.399 E32.40209
G1 X60.170 Y67.475 E32.54193
G1 X60.335 Y66.320 E32.71694
G0 F9000 X59.840 Y66.251
;TYPE:WALL-OUTER
G1 F1800 X60.293 Y62.923 E33.22074
G1 X60.848 Y63.309 E33.32215
G1 X62.059 Y64.904 E33.62254
G1 X62.705 Y66.759 E33.91718
G1 X62.754 Y68.769 E34.21877
G1 X62.178 Y70.675 E34.51744
G1 X61.031 Y72.320 E34.81825
G1 X59.450 Y73.513 E35.11534
G1 X59.230 Y73.592 E35.15041
G1 X58.388 Y73.883 E35.28404
G1 X58.946 Y72.687 E35.48200
G1 X59.840 Y66.251 E36.45667
G0 F9000 X60.480 Y66.491
;TYPE:FILL
G1 F1800 X62.061 Y68.071 E36.79195
G0 F9000 X60.395 Y67.112
G1 F1800 X62.049 Y68.766 E37.14281
G0 F9000 X60.310 Y67.735
G1 F1800 X61.885 Y69.309 E37.47681
G0 F9000 X60.224 Y68.356
G1 F1800 X61.720 Y69.852 E37.79416
G0 F9000 X60.138 Y68.977
G1 F1800 X61.552 Y70.391 E38.09412
G0 F9000 X60.053 Y69.599
G1 F1800 X61.261 Y70.807 E38.35037
G0 F9000 X59.967 Y70.220
G1 F1800 X60.971 Y71.224 E38.56335
G0 F9000 X59.882 Y70.842
G1 F1800 X60.681 Y71.641 E38.73285
G0 F9000 X59.796 Y71.463
G1 F1800 X60.021 Y72.042 E38.84652
G1 X59.929 Y72.303 E38.88804
G0 F9000 X62.042 Y67.346
G1 F1800 X60.567 Y65.870 E39.20104
G0 F9000 X60.653 Y65.249
G1 F1800 X61.900 Y66.496 E39.46556
G0 F9000 X60.739 Y64.628
G1 F1800 X61.522 Y65.411 E39.63166
G10
G0 F9000 X68.882 Y67.363
;TYPE:WALL-INNER
G11
G1 F1800 X69.315 Y67.770 E39.72080
G1 X70.199 Y69.370 E39.99500
G1 X70.550 Y71.179 E40.27141
G1 X70.321 Y72.997 E40.54626
G1 X69.538 Y74.661 E40.82211
G1 X68.682 Y75.573 E41.00973
G1 X68.729 Y73.619 E41.30292
G1 X68.757 Y72.348 E41.49361
G1 X68.782 Y71.282 E41.65356
G1 X68.812 Y70.170 E41.82042
G1 X68.838 Y68.755 E42.03271
G1 X68.882 Y67.363 E42.24161
G0 F9000 X68.416 Y66.257
;TYPE:WALL-OUTER
G1 F1800 X68.416 Y66.241 E42.24401
G1 X69.713 Y67.457 E42.51069
G1 X70.676 Y69.199 E42.80926
G1 X71.056 Y71.161 E43.10903
G1 X70.807 Y73.141 E43.40837
G1 X69.957 Y74.946 E43.70764
G1 X68.598 Y76.393 E44.00541
G1 X68.160 Y76.635 E44.08047
G1 X68.282 Y71.269 E44.88557
G1 X68.312 Y70.159 E45.05214
G1 X68.338 Y68.739 E45.26517
G1 X68.416 Y66.257 E45.63766
G10
G0 F9000 X69.037 Y67.977
;TYPE:FILL
G11
G1 F1800 X69.465 Y68.404 E45.72834
G0 F9000 X69.021 Y68.667
G1 F1800 X70.091 Y69.738 E45.95543
G0 F9000 X69.005 Y69.358
G1 F1800 X70.262 Y70.615 E46.22208
G0 F9000 X68.988 Y70.048
G1 F1800 X70.345 Y71.405 E46.50994
G0 F9000 X68.971 Y70.739
G1 F1800 X70.266 Y72.034 E46.78465
G0 F9000 X68.955 Y71.430
G1 F1800 X70.187 Y72.662 E47.04600
G0 F9000 X68.939 Y72.121
G1 F1800 X70.028 Y73.210 E47.27701
G0 F9000 X68.923 Y72.812
G1 F1800 X69.802 Y73.691 E47.46348
G0 F9000 X68.906 Y73.503
G1 F1800 X69.232 Y74.182 E47.60515
G1 X69.100 Y74.757 E47.69772
G1 X68.984 Y74.995 E47.73743
G10
G0 F9000 X69.187 Y77.154
;TYPE:SUPPORT
G11
G1 F1800 X70.757 Y75.481 E48.08158
G1 X70.800 Y75.385 E48.09736
G1 X71.719 Y73.433 E48.42098
G1 X71.747 Y73.285 E48.44358
G1 X72.013 Y71.164 E48.76422
G1 X71.997 Y71.033 E48.78402
G1 X71.579 Y68.869 E49.11462
G1 X70.716 Y67.308 E49.38217
G1 X70.716 Y64.272 E49.83757
G1 X70.571 Y64.071 E49.87474
G1 X69.531 Y64.590 E50.04909
G1 X68.813 Y65.308 E50.20140
G1 X67.506 Y64.697 E50.41781
G1 X67.489 Y65.357 E50.51685
G1 X63.297 Y65.569 E51.14645
G1 X62.900 Y64.430 E51.32738
G1 X62.819 Y64.332 E51.34645
G1 X61.513 Y62.614 E51.67016
G1 X59.562 Y61.257 E52.02664
G1 X59.377 Y62.602 E52.23029
G1 X57.789 Y62.077 E52.48117
G1 X56.016 Y62.103 E52.74715
G1 X56.016 Y63.916 E53.01910
G1 X55.816 Y63.916 E53.04910
G1 X55.816 Y65.106 E53.22760
G1 X55.616 Y65.306 E53.27002
G1 X55.616 Y66.889 E53.50747
G1 X55.416 Y66.897 E53.53750
G1 X55.416 Y67.706 E53.65885
G1 X55.216 Y67.906 E53.70127
G1 X55.216 Y68.306 E53.76127
G1 X55.016 Y68.506 E53.80370
G1 X55.016 Y69.516 E53.95520
G1 X54.616 Y69.516 E54.01520
G1 X54.616 Y69.706 E54.04370
G1 X54.416 Y69.906 E54.08613
G1 X54.416 Y70.306 E54.14613
G1 X54.216 Y70.506 E54.18855
G1 X54.216 Y70.706 E54.21855
G1 X54.016 Y70.906 E54.26098
G1 X54.016 Y71.106 E54.29098
G1 X53.816 Y71.306 E54.33340
G1 X53.816 Y71.506 E54.36340
G1 X53.616 Y71.706 E54.40583
G1 X53.616 Y72.106 E54.46583
G1 X53.416 Y72.306 E54.50826
G1 X53.416 Y72.505 E54.53811
G1 X53.298 Y72.623 E54.56314
G1 X53.328 Y72.639 E54.56824
G1 X53.694 Y73.005 E54.64588
G1 X54.785 Y73.368 E54.81835
G1 X55.121 Y73.537 E54.87477
G1 X56.410 Y73.698 E55.06962
G1 X57.703 Y75.128 E55.35880
G1 X59.913 Y74.356 E55.70995
G1 X59.994 Y74.291 E55.72552
G1 X60.956 Y73.568 E55.90603
G1 X62.616 Y74.396 E56.18429
G1 X62.616 Y76.785 E56.54264
G1 X63.419 Y77.187 E56.67734
G1 X63.419 Y77.233 E56.68424
G1 X66.643 Y77.121 E57.16813
G1 X67.885 Y77.872 E57.38584
G1 X69.187 Y77.154 E57.60887
G0 F9000 X69.265 Y77.215
G0 X71.816 Y82.116
G1 F1800 X71.816 Y82.898 E57.72617
G1 X71.616 Y82.903 E57.75618
G1 X71.616 Y83.699 E57.87558
G1 X71.416 Y83.704 E57.90559
G1 X71.416 Y84.099 E57.96484
G1 X71.311 Y84.102 E57.98060
G1 X71.710 Y85.073 E58.13806
G1 X70.616 Y85.102 E58.30222
G1 X70.616 Y85.105 E58.30267
G1 X69.331 Y86.391 E58.57537
G1 X68.931 Y86.591 E58.64245
G1 X68.531 Y86.991 E58.72730
G1 X67.582 Y87.465 E58.88642
G1 X66.986 Y87.664 E58.98067
G1 X66.480 Y87.916 E59.06546
G1 X63.703 Y87.916 E59.48201
G1 X62.422 Y87.489 E59.68456
G1 X61.459 Y87.248 E59.83346
G1 X61.201 Y86.991 E59.88809
G1 X60.802 Y86.791 E59.95503
G1 X60.779 Y86.768 E59.95991
G1 X59.281 Y87.516 E60.21107
G1 X57.186 Y87.516 E60.52532
G1 X54.700 Y87.290 E60.89976
G1 X54.401 Y86.991 E60.96318
G1 X52.801 Y86.191 E61.23151
G1 X51.116 Y84.505 E61.58906
G1 X51.116 Y84.306 E61.61891
G1 X50.916 Y84.106 E61.66134
G1 X50.916 Y83.906 E61.69134
G1 X50.716 Y83.706 E61.73376
G1 X50.716 Y83.516 E61.76226
G1 X49.547 Y83.516 E61.93761
G1 X47.271 Y83.061 E62.28577
G1 X47.001 Y82.791 E62.34304
G1 X46.601 Y82.591 E62.41013
G1 X46.401 Y82.391 E62.45255
G1 X45.116 Y81.748 E62.66809
G1 X45.116 Y81.306 E62.73439
G1 X43.916 Y80.105 E62.98905
G1 X43.916 Y79.706 E63.04890
G1 X43.716 Y79.506 E63.09133
G1 X43.716 Y79.306 E63.12133
G1 X43.516 Y79.106 E63.16375
G1 X43.516 Y78.706 E63.22375
G1 X43.316 Y78.506 E63.26618
G1 X43.316 Y74.927 E63.80303
G1 X43.627 Y74.616 E63.86900
G1 X43.516 Y74.505 E63.89255
G1 X43.516 Y73.906 E63.98240
G1 X43.316 Y73.706 E64.02483
G1 X43.316 Y73.307 E64.08468
G1 X42.716 Y72.706 E64.21206
G1 X45.425 Y69.098 E64.88883
G1 X48.133 Y65.479 E65.56683
G1 X47.551 Y64.648 E65.71901
G1 X46.876 Y64.853 E65.82483
G1 X45.015 Y66.195 E66.16899
G1 X44.932 Y66.303 E66.18942
G1 X43.258 Y68.647 E66.62148
G1 X41.516 Y66.905 E66.99101
G1 X41.516 Y66.706 E67.02086
G1 X41.316 Y66.506 E67.06329
G1 X41.316 Y66.306 E67.09329
G1 X41.116 Y66.106 E67.13572
G1 X41.116 Y65.906 E67.16572
G1 X40.916 Y65.706 E67.20814
G1 X40.916 Y65.506 E67.23814
G1 X40.516 Y65.106 E67.32300
G1 X40.516 Y64.306 E67.44300
G1 X40.316 Y64.106 E67.48542
G1 X40.316 Y61.926 E67.81242
G1 X40.516 Y61.726 E67.85485
G1 X40.516 Y60.726 E68.00485
G1 X40.916 Y60.326 E68.08970
G1 X40.916 Y60.126 E68.11970
G1 X41.116 Y59.926 E68.16213
G1 X41.116 Y59.726 E68.19213
G1 X41.316 Y59.526 E68.23455
G1 X41.316 Y59.326 E68.26455
G1 X41.516 Y59.126 E68.30698
G1 X41.516 Y58.927 E68.33683
G1 X43.401 Y57.041 E68.73681
G1 X44.202 Y56.641 E68.87110
G1 X44.403 Y56.440 E68.91374
G1 X44.916 Y56.184 E68.99974
G1 X44.916 Y55.726 E69.06844
G1 X45.116 Y55.526 E69.11087
G1 X45.116 Y54.927 E69.20072
G1 X45.916 Y54.126 E69.37053
G1 X45.916 Y53.927 E69.40038
G1 X46.516 Y53.326 E69.52776
G1 X46.516 Y52.778 E69.60996
G1 X47.747 Y52.368 E69.80459
G1 X48.401 Y52.041 E69.91427
G1 X48.859 Y51.584 E70.01132
G1 X49.817 Y51.344 E70.15946
G1 X50.471 Y51.126 E70.26286
G1 X49.916 Y50.849 E70.35591
G1 X49.916 Y50.506 E70.40736
G1 X49.316 Y49.905 E70.53474
G1 X49.316 Y49.706 E70.56459
G1 X48.716 Y49.105 E70.69198
G1 X48.716 Y48.506 E70.78183
G1 X48.516 Y48.306 E70.82425
G1 X48.516 Y47.906 E70.88425
G1 X48.316 Y47.706 E70.92668
G1 X48.316 Y44.506 E71.40668
G1 X48.026 Y44.216 E71.46820
G1 X48.716 Y43.525 E71.61468
G1 X48.716 Y42.926 E71.70453
G1 X49.116 Y42.526 E71.78938
G1 X49.116 Y42.326 E71.81938
G1 X49.516 Y41.926 E71.90423
G1 X49.516 Y41.726 E71.93423
G1 X49.916 Y41.326 E72.01908
G1 X49.916 Y40.884 E72.08538
G1 X50.802 Y40.441 E72.23397
G1 X51.003 Y40.240 E72.27661
G1 X51.400 Y40.041 E72.34322
G1 X51.858 Y39.583 E72.44038
G1 X52.816 Y39.345 E72.58845
G1 X53.346 Y39.168 E72.67226
G1 X53.602 Y39.040 E72.71520
G1 X53.927 Y38.716 E72.78403
G1 X57.030 Y38.716 E73.24948
G1 X58.384 Y39.168 E73.46360
G1 X58.931 Y39.441 E73.55530
G1 X59.031 Y39.541 E73.57651
G1 X59.542 Y39.371 E73.65729
G1 X59.801 Y39.241 E73.70076
G1 X60.001 Y39.041 E73.74319
G1 X60.402 Y38.841 E73.81041
G1 X60.659 Y38.584 E73.86492
G1 X61.622 Y38.343 E74.01383
G1 X62.303 Y38.116 E74.12150
G1 X66.030 Y38.116 E74.68055
G1 X66.784 Y38.368 E74.79980
G1 X67.731 Y38.841 E74.95859
G1 X68.131 Y39.241 E75.04344
G1 X68.530 Y39.441 E75.11039
G1 X69.418 Y40.328 E75.29866
G1 X69.428 Y40.328 E75.30016
G1 X69.773 Y40.156 E75.35798
G1 X70.620 Y39.943 E75.48899
G1 X71.146 Y39.768 E75.57214
G1 X71.402 Y39.640 E75.61507
G1 X71.756 Y39.287 E75.69006
G1 X74.814 Y39.521 E76.15010
G1 X75.896 Y39.738 E76.31563
G1 X76.584 Y39.968 E76.42445
G1 X77.130 Y40.241 E76.51601
G1 X77.408 Y40.518 E76.57488
G1 X77.612 Y40.523 E76.60549
G1 X78.816 Y41.727 E76.86090
G1 X78.816 Y41.926 E76.89075
G1 X79.416 Y42.527 E77.01813
G1 X79.416 Y42.726 E77.04798
G1 X79.616 Y42.926 E77.09041
G1 X79.616 Y43.326 E77.15041
G1 X79.816 Y43.526 E77.19283
G1 X79.816 Y43.716 E77.22133
G1 X80.016 Y43.716 E77.25133
G1 X80.016 Y44.726 E77.40283
G1 X80.216 Y44.926 E77.44526
G1 X80.216 Y47.118 E77.77406
G1 X80.217 Y47.469 E77.82671
G1 X80.217 Y48.105 E77.92211
G1 X80.028 Y48.295 E77.96231
G1 X80.039 Y48.395 E77.97740
G1 X80.131 Y48.441 E77.99283
G1 X81.416 Y49.727 E78.26553
G1 X81.416 Y49.924 E78.29508
G1 X81.742 Y50.250 E78.36423
G1 X81.684 Y50.394 E78.38752
G1 X81.942 Y50.652 E78.44225
G1 X81.883 Y50.793 E78.46517
G1 X82.216 Y51.126 E78.53581
G1 X82.216 Y51.726 E78.62581
G1 X82.416 Y51.926 E78.66824
G1 X82.416 Y51.984 E78.67694
G1 X82.929 Y52.240 E78.76294
G1 X85.016 Y54.327 E79.20566
G1 X85.016 Y54.523 E79.23506
G1 X85.216 Y54.526 E79.26506
G1 X85.216 Y54.716 E79.29356
G1 X85.393 Y54.716 E79.32011
G1 X85.407 Y55.143 E79.38420
G1 X85.616 Y55.156 E79.41561
G1 X85.616 Y55.740 E79.50321
G1 X85.829 Y55.752 E79.53521
G1 X85.821 Y56.126 E79.59132
G1 X86.016 Y56.129 E79.62057
G1 X86.016 Y59.706 E80.15712
G1 X85.816 Y59.906 E80.19955
