;FLAVOR:UltiGCode
;TIME:6547      
;MATERIAL:23727     
;MATERIAL2:0         

;Layer count: 218
;LAYER:0
M107
G0 F9000 X45.503 Y62.083 Z0.300
;TYPE:SKIRT
G1 F1800 X48.778 Y61.088 E0.51342
G1 X51.899 Y65.535 E1.32836
G1 X48.992 Y69.424 E2.05667
G1 X47.866 Y70.927 E2.33837
G1 X44.889 Y74.892 E3.08210
G1 X39.279 Y72.051 E4.02535
G1 X40.696 Y67.361 E4.76026
G1 X40.874 Y66.738 E4.85745
G1 X42.483 Y64.482 E5.27310
G1 X42.875 Y63.978 E5.36887
G1 X45.503 Y62.083 E5.85487
G0 F9000 X45.728 Y62.538
G1 F1800 X48.577 Y61.672 E6.30153
G1 X51.282 Y65.526 E7.00781
G1 X48.592 Y69.124 E7.68167
G1 X47.466 Y70.627 E7.96337
G1 X44.741 Y74.256 E8.64410
G1 X39.879 Y71.795 E9.46150
G1 X41.175 Y67.506 E10.13358
G1 X41.331 Y66.959 E10.21890
G1 X42.884 Y64.781 E10.62015
G1 X43.226 Y64.342 E10.70362
G1 X45.728 Y62.538 E11.16630
G0 F9000 X56.125 Y63.857
G1 F1800 X57.220 Y55.913 E12.36917
G1 X63.650 Y60.386 E13.54409
G1 X64.536 Y61.551 E13.76364
G1 X64.577 Y59.961 E14.00221
G1 X70.538 Y62.748 E14.98927
G1 X72.910 Y64.972 E15.47700
G1 X74.482 Y67.816 E15.96443
G1 X75.014 Y70.565 E16.38443
G1 X75.086 Y71.173 E16.47627
G1 X74.759 Y73.777 E16.86993
G1 X74.646 Y74.376 E16.96137
G1 X73.586 Y76.628 E17.33472
G1 X73.325 Y77.202 E17.42930
G1 X71.081 Y79.592 E17.92106
G1 X67.814 Y81.394 E18.48071
G1 X64.105 Y79.151 E19.13088
G1 X64.183 Y75.462 E19.68435
G1 X64.196 Y74.936 E19.76328
G1 X63.937 Y75.132 E19.81200
G1 X63.929 Y75.144 E19.81416
G1 X62.363 Y76.324 E20.10828
G1 X61.840 Y76.721 E20.20677
G1 X61.398 Y77.074 E20.29162
G1 X61.352 Y77.090 E20.29893
G1 X61.340 Y77.099 E20.30118
G1 X61.332 Y77.102 E20.30246
G1 X59.222 Y78.692 E20.69876
G1 X58.706 Y78.008 E20.82728
G1 X56.795 Y78.673 E21.13079
G1 X56.792 Y78.670 E21.13143
G1 X55.230 Y79.211 E21.37938
G1 X55.230 Y76.940 E21.72003
G1 X53.461 Y74.982 E22.11585
G1 X55.067 Y71.540 E22.68559
G1 X55.303 Y69.858 E22.94036
G1 X55.457 Y68.715 E23.11336
G1 X55.590 Y67.774 E23.25591
G1 X55.713 Y66.854 E23.39514
G1 X55.879 Y65.688 E23.57180
G1 X56.125 Y63.857 E23.84892
G0 F9000 X56.621 Y63.925
G1 F1800 X57.604 Y56.789 E24.92943
G1 X63.300 Y60.751 E25.97019
G1 X64.807 Y62.734 E26.34379
G1 X65.000 Y62.966 E26.38906
G1 X65.057 Y60.737 E26.72352
G1 X70.254 Y63.167 E27.58407
G1 X72.511 Y65.283 E28.04814
G1 X74.006 Y67.989 E28.51187
G1 X74.520 Y70.642 E28.91722
G1 X74.582 Y71.171 E28.99711
G1 X74.264 Y73.699 E29.37930
G1 X74.167 Y74.221 E29.45894
G1 X73.130 Y76.421 E29.82376
G1 X73.131 Y76.421 E29.82391
G1 X72.904 Y76.920 E29.90614
G1 X70.771 Y79.192 E30.37360
G1 X67.825 Y80.817 E30.87826
G1 X64.611 Y78.873 E31.44169
G1 X64.683 Y75.473 E31.95181
G1 X64.721 Y73.912 E32.18603
G1 X63.575 Y74.779 E32.40158
G1 X63.567 Y74.791 E32.40374
G1 X61.955 Y76.006 E32.70653
G1 X61.537 Y76.322 E32.78513
G1 X61.153 Y76.630 E32.85897
G1 X61.112 Y76.644 E32.86547
G1 X61.103 Y76.651 E32.86718
G1 X61.096 Y76.653 E32.86827
G1 X59.320 Y77.992 E33.20190
G1 X58.885 Y77.416 E33.31017
G1 X56.943 Y78.092 E33.61862
G1 X56.941 Y78.089 E33.61916
G1 X55.730 Y78.509 E33.81142
G1 X55.730 Y76.749 E34.07542
G1 X54.054 Y74.893 E34.45053
G1 X55.552 Y71.684 E34.98175
G1 X55.799 Y69.927 E35.24789
G1 X55.952 Y68.784 E35.42087
G1 X56.085 Y67.844 E35.56327
G1 X56.209 Y66.923 E35.70267
G1 X56.374 Y65.759 E35.87902
G1 X56.621 Y63.925 E36.15660
G10
G0 F9000 X46.141 Y66.555
;TYPE:WALL-OUTER
G11
G1 F1800 X44.426 Y68.843 E36.58551
G1 X44.530 Y68.502 E36.63899
G1 X45.683 Y66.885 E36.93688
G1 X46.141 Y66.555 E37.02156
G10
G0 F9000 X60.335 Y66.320
;TYPE:WALL-INNER
G11
G1 F1800 X60.584 Y64.465 E37.30230
G1 X60.663 Y63.892 E37.38907
G1 X61.613 Y65.142 E37.62457
G1 X62.205 Y66.842 E37.89459
G1 X62.252 Y68.700 E38.17338
G1 X61.721 Y70.455 E38.44841
G1 X60.666 Y71.969 E38.72521
G1 X59.506 Y72.843 E38.94307
G1 X59.579 Y72.940 E38.96128
G1 X59.341 Y73.022 E38.99904
G1 X59.431 Y72.830 E39.03085
G1 X59.760 Y70.481 E39.38664
G1 X59.914 Y69.332 E39.56053
G1 X60.046 Y68.399 E39.70187
G1 X60.170 Y67.475 E39.84172
G1 X60.335 Y66.320 E40.01673
G0 F9000 X59.840 Y66.251
;TYPE:WALL-OUTER
G1 F1800 X60.293 Y62.923 E40.52053
G1 X60.848 Y63.309 E40.62193
G1 X62.059 Y64.904 E40.92233
G1 X62.705 Y66.759 E41.21697
G1 X62.754 Y68.769 E41.51856
G1 X62.178 Y70.675 E41.81723
G1 X61.031 Y72.320 E42.11804
G1 X59.450 Y73.513 E42.41513
G1 X59.230 Y73.592 E42.45019
G1 X58.388 Y73.883 E42.58382
G1 X58.946 Y72.687 E42.78179
G1 X59.840 Y66.251 E43.75646
G0 F9000 X60.480 Y66.491
;TYPE:FILL
G1 F1800 X62.061 Y68.071 E44.09173
G0 F9000 X60.395 Y67.112
G1 F1800 X62.049 Y68.766 E44.44260
G0 F9000 X60.310 Y67.735
G1 F1800 X61.885 Y69.309 E44.77660
G0 F9000 X60.224 Y68.356
G1 F1800 X61.720 Y69.852 E45.09395
G0 F9000 X60.138 Y68.977
G1 F1800 X61.552 Y70.391 E45.39390
G0 F9000 X60.053 Y69.599
G1 F1800 X61.261 Y70.807 E45.65016
G0 F9000 X59.967 Y70.220
G1 F1800 X60.971 Y71.224 E45.86314
G0 F9000 X59.882 Y70.842
G1 F1800 X60.681 Y71.641 E46.03263
G0 F9000 X59.796 Y71.463
G1 F1800 X60.021 Y72.042 E46.14631
G1 X59.929 Y72.303 E46.18782
G0 F9000 X62.042 Y67.346
G1 F1800 X60.567 Y65.870 E46.50082
G0 F9000 X60.653 Y65.249
G1 F1800 X61.900 Y66.496 E46.76535
G0 F9000 X60.739 Y64.628
G1 F1800 X61.522 Y65.411 E46.93145
G10
G0 F9000 X68.882 Y67.363
;TYPE:WALL-INNER
G11
G1 F1800 X69.315 Y67.770 E47.02059
G1 X70.199 Y69.370 E47.29478
G1 X70.550 Y71.179 E47.57119
G1 X70.321 Y72.997 E47.84605
G1 X69.538 Y74.661 E48.12190
G1 X68.682 Y75.573 E48.30952
G1 X68.729 Y73.619 E48.60270
G1 X68.757 Y72.348 E48.79340
G1 X68.782 Y71.282 E48.95335
G1 X68.812 Y70.170 E49.12021
G1 X68.838 Y68.755 E49.33249
G1 X68.882 Y67.363 E49.54140
G0 F9000 X68.416 Y66.257
;TYPE:WALL-OUTER
G1 F1800 X68.416 Y66.241 E49.54380
G1 X69.713 Y67.457 E49.81048
G1 X70.676 Y69.199 E50.10905
G1 X71.056 Y71.161 E50.40882
G1 X70.807 Y73.141 E50.70816
G1 X69.957 Y74.946 E51.00742
G1 X68.598 Y76.393 E51.30519
G1 X68.160 Y76.635 E51.38025
G1 X68.282 Y71.269 E52.18536
G1 X68.312 Y70.159 E52.35192
G1 X68.338 Y68.739 E52.56496
G1 X68.416 Y66.257 E52.93744
G10
G0 F9000 X69.037 Y67.977
;TYPE:FILL
G11
G1 F1800 X69.465 Y68.404 E53.02813
G0 F9000 X69.021 Y68.667
G1 F1800 X70.091 Y69.738 E53.25522
G0 F9000 X69.005 Y69.358
G1 F1800 X70.262 Y70.615 E53.52187
G0 F9000 X68.988 Y70.048
G1 F1800 X70.345 Y71.405 E53.80973
G0 F9000 X68.971 Y70.739
G1 F1800 X70.266 Y72.034 E54.08444
G0 F9000 X68.955 Y71.430
G1 F1800 X70.187 Y72.662 E54.34579
G0 F9000 X68.939 Y72.121
G1 F1800 X70.028 Y73.210 E54.57680
G0 F9000 X68.923 Y72.812
G1 F1800 X69.802 Y73.691 E54.76326
G0 F9000 X68.906 Y73.503
G1 F1800 X69.232 Y74.182 E54.90494
G1 X69.100 Y74.757 E54.99750
G1 X68.984 Y74.995 E55.03722
;LAYER:1
M106 S255
G0 F9000 X68.292 Y75.998 Z0.500
;TYPE:WALL-INNER
G1 F2220 X66.675 Y76.886 E55.22170
G1 X64.879 Y77.234 E55.40464
G1 X64.525 Y77.192 E55.44029
G1 X64.526 Y77.179 E55.44159
G1 X63.984 Y77.112 E55.49620
G1 X64.002 Y76.349 E55.57252
G1 X64.089 Y72.434 E55.96412
G1 X64.099 Y71.871 E56.02043
G1 X64.121 Y71.002 E56.10736
G1 X64.132 Y70.497 E56.15787
G1 X64.152 Y69.724 E56.23519
G1 X64.202 Y67.942 E56.41346
G1 X64.260 Y65.558 E56.65194
G1 X64.504 Y65.511 E56.67678
G1 X66.328 Y65.740 E56.86062
G1 X67.976 Y66.513 E57.04264
G1 X69.150 Y67.608 E57.20318
G1 X69.328 Y67.774 E57.22752
G1 X70.213 Y69.379 E57.41081
G1 X70.558 Y71.182 E57.59438
G1 X70.331 Y72.996 E57.77719
G1 X69.546 Y74.661 E57.96127
G1 X68.292 Y75.998 E58.14457
G0 F9000 X68.603 Y76.398
;TYPE:WALL-OUTER
G1 F2220 X66.847 Y77.362 E58.34490
G1 X64.895 Y77.740 E58.54372
G1 X63.996 Y77.632 E58.63427
G1 X63.997 Y77.617 E58.63577
G1 X63.473 Y77.552 E58.68857
G1 X63.589 Y72.424 E59.20150
G1 X63.599 Y71.858 E59.25811
G1 X63.770 Y65.143 E59.92983
G1 X64.487 Y65.005 E60.00285
G1 X66.471 Y65.254 E60.20280
G1 X67.944 Y65.946 E60.36555
G1 X69.195 Y65.174 E60.51255
G1 X70.776 Y64.189 E60.69882
G1 X70.984 Y64.060 E60.72330
G1 X70.933 Y64.145 E60.73321
G1 X70.945 Y64.157 E60.73491
G1 X70.918 Y64.201 E60.74007
G1 X70.120 Y64.888 E60.84537
G1 X69.703 Y65.586 E60.92668
G1 X69.574 Y65.430 E60.94692
G1 X68.179 Y66.012 E61.09807
G1 X69.061 Y66.839 E61.21898
G1 X69.728 Y67.463 E61.31032
G1 X70.689 Y69.207 E61.50944
G1 X71.064 Y71.165 E61.70880
G1 X70.817 Y73.136 E61.90744
G1 X69.966 Y74.945 E62.10736
G1 X68.603 Y76.398 E62.30658
G0 F9000 X67.861 Y76.035
;TYPE:FILL
G1 F2220 X69.456 Y74.439 E62.53222
G0 F9000 X70.085 Y73.103
G1 F2220 X66.435 Y76.753 E63.04841
G0 F9000 X65.558 Y76.923
G1 F2220 X70.249 Y72.232 E63.71182
G0 F9000 X70.350 Y71.424
G1 F2220 X64.734 Y77.039 E64.50597
G0 F9000 X64.162 Y76.904
G1 F2220 X70.299 Y70.768 E65.37380
G0 F9000 X70.185 Y70.175
G1 F2220 X64.180 Y76.180 E66.22304
G0 F9000 X64.197 Y75.456
G1 F2220 X70.071 Y69.582 E67.05375
G0 F9000 X69.853 Y69.092
G1 F2220 X64.215 Y74.731 E67.85115
G0 F9000 X64.232 Y74.007
G1 F2220 X69.602 Y68.636 E68.61065
G0 F9000 X69.351 Y68.180
G1 F2220 X64.249 Y73.282 E69.33219
G0 F9000 X64.266 Y72.558
G1 F2220 X69.060 Y67.764 E70.01016
G0 F9000 X68.695 Y67.422
G1 F2220 X64.284 Y71.833 E70.63397
G0 F9000 X64.301 Y71.109
G1 F2220 X68.329 Y67.081 E71.20361
G0 F9000 X67.963 Y66.740
G1 F2220 X64.319 Y70.384 E71.71895
G0 F9000 X64.336 Y69.660
G1 F2220 X67.509 Y66.487 E72.16768
G0 F9000 X67.028 Y66.260
G1 F2220 X64.353 Y68.935 E72.54599
G0 F9000 X64.371 Y68.211
G1 F2220 X66.547 Y66.035 E72.85372
G0 F9000 X66.000 Y65.874
G1 F2220 X64.388 Y67.486 E73.08169
G0 F9000 X64.406 Y66.762
G1 F2220 X65.372 Y65.795 E73.21837
G0 F9000 X64.423 Y66.038
G1 F2220 X64.744 Y65.716 E73.26384
G10
G0 F9000 X62.224 Y66.869
;TYPE:WALL-INNER
G11
G1 F2220 X62.262 Y68.702 E73.44718
G1 X61.731 Y70.459 E73.63073
G1 X60.674 Y71.973 E73.81538
G1 X59.830 Y72.608 E73.92100
G1 X59.215 Y73.074 E73.99816
G1 X57.493 Y73.673 E74.18048
G1 X55.649 Y73.712 E74.36492
G1 X54.257 Y73.291 E74.51035
G1 X56.235 Y68.784 E75.00254
G1 X56.440 Y67.290 E75.15334
G1 X56.516 Y66.752 E75.20767
G1 X57.159 Y62.100 E75.67730
G1 X57.244 Y62.099 E75.68580
G1 X59.000 Y62.628 E75.86919
G1 X59.770 Y63.165 E75.96307
G1 X60.512 Y63.678 E76.05328
G1 X61.622 Y65.141 E76.23692
G1 X62.224 Y66.869 E76.41990
G0 F9000 X62.416 Y68.716
G0 X62.764 Y68.772
;TYPE:WALL-OUTER
G1 F2220 X62.189 Y70.671 E76.61832
G1 X61.049 Y72.309 E76.81788
G1 X61.037 Y72.326 E76.81997
G1 X59.454 Y73.520 E77.01825
G1 X57.581 Y74.171 E77.21654
G1 X55.580 Y74.214 E77.41668
G1 X54.795 Y73.978 E77.49865
G1 X53.669 Y73.637 E77.61630
G1 X53.585 Y73.578 E77.62657
G1 X55.749 Y68.648 E78.16497
G1 X55.945 Y67.220 E78.30911
G1 X56.722 Y61.609 E78.87557
G1 X57.313 Y61.597 E78.93468
G1 X59.213 Y62.170 E79.13313
G1 X60.864 Y63.314 E79.33399
G1 X62.068 Y64.901 E79.53319
G1 X62.720 Y66.773 E79.73142
G1 X62.764 Y68.760 E79.93017
G1 X62.764 Y68.772 E79.93137
G0 F9000 X62.079 Y68.381
;TYPE:FILL
G1 F2220 X56.952 Y73.508 E80.65644
G0 F9000 X56.230 Y73.523
G1 F2220 X62.065 Y67.688 E81.48163
G0 F9000 X62.051 Y66.995
G1 F2220 X55.548 Y73.498 E82.40130
G0 F9000 X55.005 Y73.334
G1 F2220 X61.892 Y66.447 E83.37527
G0 F9000 X61.709 Y65.923
G1 F2220 X54.530 Y73.102 E84.39053
G0 F9000 X55.083 Y71.842
G1 F2220 X61.526 Y65.398 E85.30178
G0 F9000 X61.262 Y64.956
G1 F2220 X55.637 Y70.581 E86.09727
G0 F9000 X56.190 Y69.321
G1 F2220 X60.957 Y64.553 E86.77150
G0 F9000 X60.652 Y64.151
G1 F2220 X56.475 Y68.329 E87.36229
G0 F9000 X56.589 Y67.508
G1 F2220 X60.332 Y63.764 E87.89170
G0 F9000 X59.915 Y63.474
G1 F2220 X56.702 Y66.687 E88.34608
G0 F9000 X56.816 Y65.866
G1 F2220 X59.498 Y63.184 E88.72538
G0 F9000 X59.080 Y62.895
G1 F2220 X56.929 Y65.046 E89.02957
G0 F9000 X57.043 Y64.225
G1 F2220 X58.584 Y62.684 E89.24750
G0 F9000 X57.156 Y63.404
G1 F2220 X58.041 Y62.520 E89.37259
G0 F9000 X57.270 Y62.583
G1 F2220 X57.497 Y62.356 E89.40469
G0 F9000 X61.910 Y69.257
G1 F2220 X57.781 Y73.387 E89.98869
G0 F9000 X58.865 Y73.009
G1 F2220 X61.604 Y70.270 E90.37605
G10
G0 F9000 X47.751 Y65.528
;TYPE:WALL-OUTER
G11
G1 F2220 X43.912 Y70.655 E91.01655
G1 X43.904 Y70.377 E91.04436
G1 X44.476 Y68.480 E91.24249
G1 X45.630 Y66.857 E91.44164
G1 X47.254 Y65.683 E91.64203
G1 X47.751 Y65.528 E91.69409
G10
G0 F9000 X45.641 Y67.141
;TYPE:FILL
G11
G1 F2220 X46.039 Y67.113 E91.73407
G1 X45.763 Y66.976 E91.76488
G0 F9000 X46.246 Y67.243
G1 F2220 X44.506 Y68.983 E92.01096
;LAYER:2
G0 F9000 X44.888 Y68.656 Z0.700
;TYPE:WALL-INNER
G1 F2700 X45.945 Y67.173 E92.19307
G1 X47.434 Y66.099 E92.37666
G1 X47.574 Y66.056 E92.39131
G1 X45.497 Y68.831 E92.73793
G1 X44.531 Y70.118 E92.89885
G1 X44.390 Y70.307 E92.92243
G1 X44.888 Y68.656 E93.09487
G0 F9000 X45.830 Y67.071
G0 X45.586 Y66.816
;TYPE:WALL-OUTER
G1 F2700 X47.197 Y65.654 E93.29351
G1 X47.208 Y65.647 E93.29481
G1 X48.900 Y65.119 E93.47206
G1 X43.897 Y71.802 E94.30688
G1 X43.856 Y70.350 E94.45214
G1 X44.424 Y68.461 E94.64939
G1 X44.434 Y68.431 E94.65255
G1 X45.570 Y66.838 E94.84821
G1 X45.586 Y66.816 E94.85093
G0 F9000 X46.078 Y67.291
;TYPE:FILL
G1 F2700 X46.279 Y67.492 E94.87936
G10
G0 F9000 X50.922 Y69.641
;TYPE:WALL-INNER
G11
G1 F2700 X51.813 Y67.548 E95.10683
G1 X52.836 Y66.124 E95.28217
G1 X53.118 Y64.095 E95.48702
G1 X53.226 Y63.332 E95.56408
G1 X53.255 Y63.069 E95.59054
G1 X53.315 Y63.025 E95.59798
G1 X53.684 Y62.739 E95.64467
G1 X55.425 Y62.136 E95.82891
G1 X57.264 Y62.101 E96.01285
G1 X59.017 Y62.632 E96.19601
G1 X60.526 Y63.682 E96.37985
G1 X61.633 Y65.143 E96.56315
G1 X61.929 Y65.990 E96.65287
G1 X64.500 Y65.500 E96.91460
G1 X64.627 Y65.500 E96.92730
G1 X66.154 Y64.637 E97.10270
G1 X67.249 Y63.962 E97.23133
G1 X68.124 Y63.421 E97.33421
G1 X69.001 Y62.882 E97.43715
G1 X70.082 Y62.214 E97.56422
G1 X70.112 Y62.196 E97.56772
G1 X71.210 Y61.524 E97.69645
G1 X71.759 Y61.184 E97.76103
G1 X71.496 Y62.301 E97.87578
G1 X70.537 Y63.887 E98.06112
G1 X69.783 Y64.536 E98.16061
G1 X68.784 Y66.205 E98.35512
G1 X68.202 Y66.711 E98.43224
G1 X69.338 Y67.776 E98.58796
G1 X70.222 Y69.382 E98.77128
G1 X70.567 Y71.183 E98.95465
G1 X70.338 Y72.998 E99.13759
G1 X69.557 Y74.660 E99.32123
G1 X68.300 Y75.998 E99.50481
G1 X66.684 Y76.887 E99.68925
G1 X64.881 Y77.237 E99.87292
G1 X63.059 Y77.013 E100.05649
G1 X61.395 Y76.239 E100.24001
G1 X60.120 Y75.050 E100.41434
G1 X59.061 Y73.133 E100.63335
G1 X57.491 Y73.679 E100.79957
G1 X55.654 Y73.716 E100.98331
G1 X54.418 Y73.342 E101.11245
G1 X53.896 Y73.185 E101.16696
G1 X52.386 Y72.136 E101.35082
G1 X51.556 Y71.040 E101.48830
G1 X51.282 Y70.674 E101.53402
G1 X50.922 Y69.641 E101.64341
G0 F9000 X50.617 Y69.091
;TYPE:WALL-OUTER
G1 F2700 X51.373 Y67.303 E101.83754
G1 X52.367 Y65.920 E102.00785
G1 X52.624 Y64.025 E102.19909
G1 X52.730 Y63.269 E102.27543
G1 X52.782 Y62.796 E102.32301
G1 X52.815 Y62.772 E102.32709
G1 X53.445 Y62.292 E102.40629
G1 X55.334 Y61.637 E102.60623
G1 X57.333 Y61.599 E102.80616
G1 X59.235 Y62.176 E103.00492
G1 X60.862 Y63.307 E103.20307
G1 X62.079 Y64.902 E103.40370
G1 X62.259 Y65.418 E103.45835
G1 X64.454 Y65.000 E103.68179
G1 X64.496 Y65.000 E103.68599
G1 X65.900 Y64.206 E103.84729
G1 X70.500 Y61.372 E104.38758
G1 X70.532 Y61.324 E104.39335
G1 X70.535 Y61.352 E104.39617
G1 X72.368 Y60.218 E104.61171
G1 X72.389 Y60.213 E104.61387
G1 X72.418 Y60.565 E104.64919
G1 X71.965 Y62.493 E104.84724
G1 X70.925 Y64.213 E105.04823
G1 X70.170 Y64.862 E105.14780
G1 X69.173 Y66.529 E105.34203
G1 X68.948 Y66.725 E105.37187
G1 X69.725 Y67.454 E105.47842
G1 X69.738 Y67.466 E105.48019
G1 X70.688 Y69.191 E105.67712
G1 X70.698 Y69.210 E105.67926
G1 X71.073 Y71.168 E105.87862
G1 X70.827 Y73.114 E106.07477
G1 X70.823 Y73.143 E106.07770
G1 X69.985 Y74.925 E106.27462
G1 X69.976 Y74.944 E106.27672
G1 X68.621 Y76.387 E106.47467
G1 X66.871 Y77.354 E106.67461
G1 X66.853 Y77.363 E106.67662
G1 X64.900 Y77.743 E106.87558
G1 X62.920 Y77.500 E107.07507
G1 X61.111 Y76.658 E107.27460
G1 X59.653 Y75.299 E107.47392
G1 X59.606 Y75.214 E107.48363
G1 X59.610 Y75.161 E107.48895
G1 X58.827 Y73.744 E107.65084
G1 X57.579 Y74.178 E107.78297
G1 X55.583 Y74.218 E107.98261
G1 X53.677 Y73.642 E108.18173
G1 X52.035 Y72.501 E108.38168
G1 X51.013 Y71.152 E108.55092
G1 X50.836 Y70.913 E108.58066
G1 X50.386 Y69.620 E108.71757
G1 X50.617 Y69.091 E108.77529
G0 F9000 X51.291 Y69.220
;TYPE:FILL
G1 F2700 X68.772 Y75.239 E110.62411
G0 F9000 X68.396 Y75.638
G1 F2700 X51.125 Y69.691 E112.45073
G0 F9000 X51.333 Y70.292
