;FLAVOR:UltiGCode
;TIME:997       
;MATERIAL:3707      
;MATERIAL2:0         

;Layer count: 183
;LAYER:0
M107
G0 F9000 X97.488 Y107.901 Z0.300
;TYPE:SKIRT
G1 F1800 X101.785 Y107.043 E0.65727
G1 X103.635 Y106.427 E0.94975
G1 X103.688 Y106.400 E0.95867
G1 X103.688 Y105.275 E1.12742
G1 X108.488 Y104.075 E1.86958
G1 X108.488 Y100.380 E2.42383
G1 X123.370 Y97.900 E4.68692
G1 X129.288 Y97.900 E5.57462
G1 X129.288 Y104.393 E6.54857
G1 X129.088 Y104.593 E6.59099
G1 X129.088 Y104.993 E6.65099
G1 X128.888 Y105.193 E6.69342
G1 X128.888 Y105.593 E6.75342
G1 X128.688 Y105.793 E6.79585
G1 X128.688 Y106.193 E6.85585
G1 X128.488 Y106.393 E6.89827
G1 X128.488 Y106.793 E6.95827
G1 X128.288 Y106.993 E7.00070
G1 X128.288 Y107.193 E7.03070
G1 X128.144 Y107.337 E7.06125
G1 X128.500 Y108.181 E7.19865
G1 X127.888 Y108.793 E7.32847
G1 X127.888 Y109.980 E7.50652
G1 X128.887 Y114.289 E8.17002
G1 X130.346 Y120.515 E9.12922
G1 X130.376 Y120.654 E9.15055
G1 X131.492 Y125.120 E9.84104
G1 X127.282 Y125.120 E10.47254
G1 X121.488 Y126.469 E11.36489
G1 X121.488 Y127.026 E11.44844
G1 X116.785 Y128.200 E12.17554
G1 X110.888 Y128.200 E13.06009
G1 X110.888 Y125.800 E13.42009
G1 X110.488 Y126.000 E13.48717
G1 X109.088 Y126.000 E13.69717
G1 X108.946 Y126.071 E13.72098
G1 X106.761 Y126.800 E14.06649
G1 X101.088 Y126.800 E14.91744
G1 X101.088 Y123.793 E15.36849
G1 X100.904 Y123.609 E15.40753
G1 X99.488 Y122.902 E15.64493
G1 X99.488 Y121.794 E15.81113
G1 X98.288 Y120.593 E16.06579
G1 X98.288 Y120.193 E16.12579
G1 X98.088 Y119.993 E16.16822
G1 X98.088 Y119.593 E16.22822
G1 X97.888 Y119.393 E16.27065
G1 X97.888 Y114.393 E17.02065
G1 X97.688 Y114.193 E17.06307
G1 X97.688 Y113.793 E17.12307
G1 X97.488 Y113.593 E17.16550
G1 X97.488 Y107.901 E18.01930
G0 F9000 X97.988 Y108.311
G1 F1800 X101.921 Y107.526 E18.62089
G1 X103.822 Y106.892 E18.92148
G1 X104.188 Y106.709 E18.98286
G1 X104.188 Y105.665 E19.13946
G1 X108.988 Y104.466 E19.88158
G1 X108.988 Y100.804 E20.43088
G1 X123.411 Y98.400 E22.62418
G1 X128.788 Y98.400 E23.43073
G1 X128.788 Y104.186 E24.29863
G1 X128.588 Y104.386 E24.34105
G1 X128.588 Y104.786 E24.40105
G1 X128.388 Y104.986 E24.44348
G1 X128.388 Y105.386 E24.50348
G1 X128.188 Y105.586 E24.54590
G1 X128.188 Y105.986 E24.60590
G1 X127.988 Y106.186 E24.64833
G1 X127.988 Y106.586 E24.70833
G1 X127.788 Y106.786 E24.75076
G1 X127.788 Y106.986 E24.78076
G1 X127.588 Y107.186 E24.82318
G1 X127.588 Y107.307 E24.84133
G1 X127.908 Y108.066 E24.96489
G1 X127.388 Y108.586 E25.07520
G1 X127.388 Y110.036 E25.29270
G1 X128.495 Y114.811 E26.02794
G1 X128.496 Y114.811 E26.02809
G1 X129.858 Y120.624 E26.92366
G1 X129.889 Y120.769 E26.94590
G1 X130.852 Y124.620 E27.54134
G1 X127.226 Y124.620 E28.08524
G1 X120.988 Y126.072 E29.04595
G1 X120.988 Y126.635 E29.13040
G1 X116.724 Y127.700 E29.78965
G1 X111.388 Y127.700 E30.59005
G1 X111.388 Y124.991 E30.99640
G1 X110.370 Y125.500 E31.16712
G1 X108.970 Y125.500 E31.37712
G1 X108.754 Y125.608 E31.41335
G1 X106.680 Y126.300 E31.74131
G1 X101.588 Y126.300 E32.50511
G1 X101.588 Y123.586 E32.91221
G1 X101.388 Y123.386 E32.95463
G1 X101.388 Y123.292 E32.96873
G1 X99.988 Y122.593 E33.20345
G1 X99.988 Y121.586 E33.35450
G1 X98.788 Y120.386 E33.60906
G1 X98.788 Y119.986 E33.66906
G1 X98.588 Y119.786 E33.71149
G1 X98.588 Y119.386 E33.77149
G1 X98.388 Y119.186 E33.81391
G1 X98.388 Y114.186 E34.56391
G1 X98.188 Y113.986 E34.60634
G1 X98.188 Y113.586 E34.66634
G1 X97.988 Y113.386 E34.70877
G1 X97.988 Y108.311 E35.47002
G10
G0 F9000 X114.757 Y113.227
;TYPE:WALL-INNER
G11
G1 F1800 X115.746 Y112.005 E35.70583
G1 X117.068 Y111.145 E35.94239
G1 X118.585 Y110.737 E36.17803
G1 X120.174 Y110.820 E36.41671
G1 X121.769 Y111.427 E36.67270
G1 X123.250 Y111.082 E36.90079
G1 X123.509 Y111.017 E36.94085
G1 X124.737 Y116.309 E37.75574
G1 X125.364 Y118.990 E38.16874
G1 X125.787 Y120.782 E38.44493
G1 X125.770 Y120.785 E38.44752
G1 X125.786 Y120.848 E38.45727
G1 X123.341 Y121.418 E38.83385
G1 X123.145 Y119.123 E39.17935
G1 X121.220 Y120.372 E39.52356
G1 X119.694 Y120.780 E39.76050
G1 X118.901 Y120.738 E39.87962
G1 X118.863 Y120.709 E39.88679
G1 X118.113 Y120.670 E39.99944
G1 X118.067 Y120.664 E40.00640
G1 X116.608 Y120.104 E40.24081
G1 X115.381 Y119.113 E40.47740
G1 X114.522 Y117.792 E40.71376
G1 X114.113 Y116.273 E40.94972
G1 X114.194 Y114.701 E41.18583
G1 X114.757 Y113.227 E41.42251
G0 F9000 X114.319 Y112.973
;TYPE:WALL-OUTER
G1 F1800 X115.406 Y111.629 E41.68180
G1 X116.862 Y110.682 E41.94233
G1 X118.530 Y110.234 E42.20139
G1 X120.271 Y110.324 E42.46289
G1 X121.804 Y110.906 E42.70886
G1 X122.750 Y110.685 E42.85458
G1 X123.884 Y110.417 E43.02936
G1 X125.755 Y118.468 E44.26920
G1 X126.380 Y121.120 E44.67789
G1 X126.387 Y121.171 E44.68562
G1 X126.394 Y121.220 E44.69304
G1 X122.892 Y122.035 E45.23238
G1 X122.718 Y119.996 E45.53934
G1 X121.424 Y120.835 E45.77067
G1 X119.748 Y121.283 E46.03089
G1 X118.721 Y121.229 E46.18516
G1 X118.683 Y121.200 E46.19233
G1 X118.004 Y121.165 E46.29431
G1 X117.961 Y121.159 E46.30083
G1 X116.356 Y120.543 E46.55870
G1 X115.005 Y119.452 E46.81918
G1 X114.059 Y117.998 E47.07937
G1 X113.610 Y116.329 E47.33862
G1 X113.699 Y114.594 E47.59922
G1 X114.319 Y112.973 E47.85955
G0 F9000 X114.986 Y113.219
;TYPE:FILL
G1 F1800 X121.650 Y119.882 E49.27309
G0 F9000 X121.221 Y120.160
G1 F1800 X114.762 Y113.702 E50.64314
G0 F9000 X114.566 Y114.213
G1 F1800 X120.685 Y120.331 E51.94107
G0 F9000 X120.127 Y120.481
G1 F1800 X114.371 Y114.725 E53.16210
G0 F9000 X114.333 Y115.394
G1 F1800 X119.534 Y120.594 E54.26530
G0 F9000 X118.759 Y120.527
G1 F1800 X114.298 Y116.065 E55.21172
G0 F9000 X114.475 Y116.950
G1 F1800 X117.960 Y120.435 E55.95100
G0 F9000 X116.812 Y119.994
G1 F1800 X114.955 Y118.137 E56.34493
G0 F9000 X115.302 Y112.828
G1 F1800 X122.079 Y119.604 E57.78245
G0 F9000 X122.508 Y119.326
G1 F1800 X115.619 Y112.437 E59.24382
G0 F9000 X115.962 Y112.073
G1 F1800 X122.937 Y119.048 E60.72344
G0 F9000 X123.349 Y119.460
G1 F1800 X124.789 Y120.900 E61.02891
G0 F9000 X123.414 Y120.232
G1 F1800 X124.216 Y121.034 E61.19904
G0 F9000 X123.480 Y121.005
G1 F1800 X123.642 Y121.167 E61.23341
G0 F9000 X125.362 Y120.766
G1 F1800 X116.391 Y111.794 E63.13655
G0 F9000 X116.819 Y111.516
G1 F1800 X125.460 Y120.157 E64.96958
G0 F9000 X125.245 Y119.235
G1 F1800 X117.280 Y111.269 E66.65932
G0 F9000 X117.836 Y111.119
G1 F1800 X125.030 Y118.313 E68.18540
G0 F9000 X124.814 Y117.390
G1 F1800 X118.393 Y110.969 E69.54750
G0 F9000 X119.069 Y110.937
G1 F1800 X124.599 Y116.468 E70.72070
G0 F9000 X124.385 Y115.546
G1 F1800 X119.816 Y110.977 E71.68993
G0 F9000 X120.787 Y111.242
G1 F1800 X124.169 Y114.623 E72.40725
G0 F9000 X123.954 Y113.701
G1 F1800 X121.842 Y111.589 E72.85528
G0 F9000 X122.416 Y111.456
G1 F1800 X123.739 Y112.779 E73.13593
G0 F9000 X122.989 Y111.322
G1 F1800 X123.523 Y111.856 E73.24920
G10
G0 F9000 X123.138 Y109.416
;TYPE:SUPPORT
G11
G1 F1800 X123.138 Y110.396 E73.39620
G1 X120.487 Y109.387 E73.82168
G1 X120.455 Y109.385 E73.82649
G1 X120.447 Y109.382 E73.82777
G1 X118.432 Y109.277 E74.13043
G1 X116.466 Y109.806 E74.43582
G1 X114.762 Y110.914 E74.74071
G1 X113.484 Y112.495 E75.04565
G1 X112.758 Y114.395 E75.35074
G1 X112.653 Y116.429 E75.65625
G1 X113.181 Y118.391 E75.96102
G1 X114.274 Y120.077 E76.26241
G1 X113.391 Y120.371 E76.40201
G1 X113.398 Y120.434 E76.41152
G1 X111.106 Y121.199 E76.77397
G1 X110.704 Y121.398 E76.84125
G1 X110.580 Y121.440 E76.86089
G1 X110.595 Y121.504 E76.87075
G1 X107.912 Y122.396 E77.29486
G1 X107.506 Y122.598 E77.36288
G1 X105.774 Y123.177 E77.63681
G1 X104.638 Y122.040 E77.87790
G1 X104.638 Y121.640 E77.93790
G1 X104.438 Y121.440 E77.98033
G1 X104.438 Y121.282 E78.00403
G1 X104.124 Y121.125 E78.05668
G1 X103.926 Y120.928 E78.09858
G1 X103.238 Y120.589 E78.21363
G1 X103.238 Y120.240 E78.26598
G1 X102.038 Y119.039 E78.52064
G1 X102.038 Y118.640 E78.58049
G1 X101.838 Y118.440 E78.62292
G1 X101.838 Y118.040 E78.68292
G1 X101.638 Y117.840 E78.72535
G1 X101.638 Y114.460 E79.23235
G1 X101.838 Y114.260 E79.27477
G1 X101.838 Y113.440 E79.39777
G1 X101.638 Y113.240 E79.44020
G1 X101.638 Y112.840 E79.50020
G1 X101.365 Y112.567 E79.55811
G1 X101.886 Y110.847 E79.82769
G1 X102.754 Y110.673 E79.96048
G1 X105.072 Y109.900 E80.32700
G1 X105.472 Y109.700 E80.39408
G1 X107.438 Y109.046 E80.70487
G1 X107.438 Y108.203 E80.83132
G1 X110.379 Y107.468 E81.28604
G1 X111.381 Y107.268 E81.43930
G1 X112.939 Y106.878 E81.68022
G1 X113.547 Y106.675 E81.77636
G1 X113.969 Y106.571 E81.84156
G1 X113.038 Y105.639 E82.03916
G1 X113.038 Y105.441 E82.06886
G1 X112.724 Y105.127 E82.13547
G1 X113.283 Y103.384 E82.41004
G1 X125.138 Y101.407 E84.21284
G1 X125.138 Y104.040 E84.60779
G1 X124.938 Y104.240 E84.65022
G1 X124.938 Y104.640 E84.71022
G1 X124.738 Y104.840 E84.75265
G1 X124.738 Y105.240 E84.81265
G1 X124.538 Y105.440 E84.85507
G1 X124.538 Y105.640 E84.88507
G1 X124.338 Y105.840 E84.92750
G1 X124.338 Y106.240 E84.98750
G1 X123.827 Y106.751 E85.09590
G1 X124.065 Y107.314 E85.18758
G1 X123.538 Y107.841 E85.29938
G1 X123.538 Y108.850 E85.45073
G1 X123.338 Y108.850 E85.48073
G1 X123.338 Y109.402 E85.56353
G1 X123.138 Y109.416 E85.59360
G0 F9000 X123.321 Y109.479
G1 F1800 X123.321 Y101.633 E86.77050
G0 F9000 X123.349 Y101.806
G0 X125.038 Y103.323
G0 X125.213 Y103.323
G1 F1800 X113.225 Y103.323 E88.56870
G0 F9000 X113.374 Y103.424
G0 X116.683 Y102.918
G0 X116.655 Y102.745
G1 F1800 X116.655 Y109.833 E89.63190
G0 F9000 X116.322 Y109.989
G1 F1800 X104.569 Y109.989 E91.39485
G0 F9000 X103.323 Y110.404
G1 F1800 X103.323 Y120.714 E92.94135
G0 F9000 X103.399 Y120.558
G0 X101.738 Y116.655
G0 X101.563 Y116.655
G1 F1800 X112.792 Y116.655 E94.62570
G0 F9000 X112.623 Y116.699
G0 X109.935 Y121.619
G0 X109.989 Y121.785
G1 F1800 X109.989 Y107.488 E96.77025
G0 F9000 X110.031 Y107.658
G0 X120.529 Y109.192
G0 X121.922 Y109.827
G0 X121.860 Y109.989
G1 F1800 X123.213 Y109.989 E96.97320
;LAYER:1
M106 S255
G0 F9000 X123.526 Y111.047 Z0.500
;TYPE:WALL-INNER
G1 F2220 X124.931 Y117.099 E97.59450
G1 X125.757 Y120.622 E97.95635
G1 X125.743 Y120.622 E97.95775
G1 X125.798 Y120.847 E97.98091
G1 X119.039 Y122.421 E98.67490
G1 X118.895 Y120.734 E98.84421
G1 X118.121 Y120.693 E98.92172
G1 X116.653 Y120.127 E99.07905
G1 X116.619 Y120.110 E99.08285
G1 X115.375 Y119.108 E99.24259
G1 X114.518 Y117.786 E99.40014
G1 X114.111 Y116.267 E99.55740
G1 X114.195 Y114.692 E99.71512
G1 X114.758 Y113.226 E99.87216
G1 X115.750 Y112.001 E100.02979
G1 X117.071 Y111.144 E100.18725
G1 X118.595 Y110.737 E100.34499
G1 X119.871 Y110.805 E100.47277
G1 X120.182 Y110.821 E100.50391
G1 X121.707 Y111.402 E100.66711
G1 X123.232 Y111.049 E100.82364
G1 X123.511 Y110.984 E100.85229
G1 X123.526 Y111.047 E100.85876
G0 F9000 X123.891 Y110.423
;TYPE:WALL-OUTER
G1 F2220 X126.387 Y121.122 E101.95739
G1 X126.403 Y121.219 E101.96722
G1 X118.590 Y123.039 E102.76944
G1 X118.434 Y121.210 E102.95301
G1 X118.013 Y121.187 E102.99517
G1 X116.409 Y120.569 E103.16706
G1 X116.397 Y120.560 E103.16856
G1 X116.366 Y120.548 E103.17189
G1 X114.999 Y119.447 E103.34741
G1 X114.056 Y117.993 E103.52071
G1 X113.608 Y116.319 E103.69400
G1 X113.700 Y114.586 E103.86755
G1 X114.320 Y112.971 E104.04054
G1 X115.409 Y111.627 E104.21352
G1 X116.865 Y110.682 E104.38710
G1 X118.542 Y110.233 E104.56071
G1 X120.287 Y110.326 E104.73545
G1 X121.743 Y110.881 E104.89127
G1 X123.882 Y110.384 E105.11087
G1 X123.891 Y110.423 E105.11487
G0 F9000 X123.161 Y111.244
;TYPE:FILL
G1 F2220 X115.471 Y118.933 E106.20233
G0 F9000 X115.848 Y119.264
G1 F2220 X123.480 Y111.632 E107.28166
G0 F9000 X123.614 Y112.205
G1 F2220 X116.240 Y119.579 E108.32450
G0 F9000 X116.631 Y119.895
G1 F2220 X123.747 Y112.779 E109.33086
G0 F9000 X123.881 Y113.352
G1 F2220 X117.115 Y120.118 E110.28771
G0 F9000 X117.626 Y120.314
G1 F2220 X124.015 Y113.926 E111.19118
G0 F9000 X124.148 Y114.500
G1 F2220 X118.137 Y120.511 E112.04127
G0 F9000 X118.803 Y120.552
G1 F2220 X124.281 Y115.073 E112.81604
G0 F9000 X124.415 Y115.647
G1 F2220 X119.091 Y120.971 E113.56897
G0 F9000 X119.147 Y121.622
G1 F2220 X124.549 Y116.220 E114.33293
G0 F9000 X124.682 Y116.794
G1 F2220 X119.295 Y122.180 E115.09470
G0 F9000 X120.217 Y121.966
G1 F2220 X124.816 Y117.367 E115.74509
G0 F9000 X124.950 Y117.941
G1 F2220 X121.139 Y121.751 E116.28398
G0 F9000 X122.060 Y121.537
G1 F2220 X125.083 Y118.514 E116.71150
G0 F9000 X125.217 Y119.088
G1 F2220 X122.982 Y121.323 E117.02757
G0 F9000 X123.903 Y121.109
G1 F2220 X125.350 Y119.661 E117.23228
G0 F9000 X124.825 Y120.894
G1 F2220 X125.484 Y120.235 E117.32548
G0 F9000 X122.241 Y111.457
G1 F2220 X115.194 Y118.504 E118.32207
G0 F9000 X114.916 Y118.075
G1 F2220 X121.485 Y111.505 E119.25114
G0 F9000 X120.973 Y111.310
G1 F2220 X114.657 Y117.627 E120.14443
G0 F9000 X114.507 Y117.070
G1 F2220 X120.462 Y111.115 E120.98659
G0 F9000 X119.889 Y110.981
G1 F2220 X114.357 Y116.512 E121.76887
G0 F9000 X114.308 Y115.854
G1 F2220 X119.218 Y110.945 E122.46317
G0 F9000 X118.517 Y110.938
G1 F2220 X114.348 Y115.107 E123.05276
G0 F9000 X114.584 Y114.164
G1 F2220 X117.552 Y111.196 E123.47250
G0 F9000 X115.691 Y112.350
G1 F2220 X115.983 Y112.058 E123.51379
G10
G0 F9000 X113.440 Y112.614
;TYPE:SUPPORT
G11
G1 F2220 X112.751 Y114.407 E123.70587
G1 X112.751 Y114.534 E123.71857
G1 X112.651 Y116.430 E123.90844
G1 X112.701 Y116.602 E123.92635
G1 X113.178 Y118.388 E124.11121
G1 X114.298 Y120.068 E124.31312
G1 X113.389 Y120.371 E124.40894
G1 X113.396 Y120.435 E124.41538
G1 X111.106 Y121.199 E124.65678
G1 X110.704 Y121.398 E124.70164
G1 X110.580 Y121.440 E124.71473
G1 X110.595 Y121.504 E124.72131
G1 X107.912 Y122.396 E125.00405
G1 X107.506 Y122.598 E125.04939
G1 X105.774 Y123.177 E125.23201
G1 X104.638 Y122.040 E125.39274
G1 X104.638 Y121.640 E125.43274
G1 X104.438 Y121.440 E125.46102
G1 X104.438 Y121.282 E125.47682
G1 X104.124 Y121.125 E125.51193
G1 X103.926 Y120.928 E125.53986
G1 X103.238 Y120.589 E125.61656
G1 X103.238 Y120.240 E125.65146
G1 X102.038 Y119.039 E125.82124
G1 X102.038 Y118.640 E125.86114
G1 X101.838 Y118.440 E125.88942
G1 X101.838 Y118.040 E125.92942
G1 X101.638 Y117.840 E125.95770
G1 X101.638 Y114.460 E126.29570
G1 X101.838 Y114.260 E126.32399
G1 X101.838 Y113.440 E126.40599
G1 X101.638 Y113.240 E126.43427
G1 X101.638 Y112.840 E126.47427
G1 X101.365 Y112.567 E126.51288
G1 X101.886 Y110.847 E126.69260
G1 X102.754 Y110.673 E126.78113
G1 X105.072 Y109.900 E127.02547
G1 X105.472 Y109.700 E127.07020
G1 X107.438 Y109.046 E127.27739
G1 X107.438 Y108.203 E127.36169
G1 X110.379 Y107.468 E127.66483
G1 X111.381 Y107.268 E127.76701
G1 X112.939 Y106.878 E127.92762
G1 X113.547 Y106.675 E127.99172
G1 X113.969 Y106.571 E128.03518
G1 X113.038 Y105.639 E128.16691
G1 X113.038 Y105.441 E128.18671
G1 X112.724 Y105.127 E128.23112
G1 X113.283 Y103.384 E128.41416
G1 X125.138 Y101.407 E129.61604
G1 X125.138 Y104.040 E129.87934
G1 X124.938 Y104.240 E129.90762
G1 X124.938 Y104.640 E129.94762
G1 X124.738 Y104.840 E129.97590
G1 X124.738 Y105.240 E130.01590
G1 X124.538 Y105.440 E130.04419
G1 X124.538 Y105.640 E130.06419
G1 X124.338 Y105.840 E130.09247
G1 X124.338 Y106.240 E130.13247
G1 X123.827 Y106.751 E130.20474
G1 X124.065 Y107.314 E130.26586
G1 X123.538 Y107.841 E130.34039
G1 X123.538 Y108.850 E130.44129
G1 X123.338 Y108.850 E130.46129
G1 X123.338 Y109.402 E130.51649
G1 X123.138 Y109.416 E130.53654
G1 X123.138 Y110.398 E130.63474
G1 X120.515 Y109.396 E130.91553
G1 X120.393 Y109.379 E130.92785
G1 X119.950 Y109.357 E130.97220
G1 X118.416 Y109.275 E131.12582
G1 X118.298 Y109.314 E131.13825
G1 X116.465 Y109.805 E131.32801
G1 X116.350 Y109.883 E131.34191
G1 X114.773 Y110.905 E131.52983
G1 X114.687 Y111.010 E131.54340
G1 X114.686 Y111.010 E131.54350
G1 X113.492 Y112.484 E131.73319
G1 X113.440 Y112.614 E131.74719
G10
G0 F9000 X116.324 Y109.989
G11
G1 F2220 X104.569 Y109.989 E132.92269
G0 F9000 X103.323 Y110.404
G1 F2220 X103.323 Y120.714 E133.95369
G0 F9000 X103.399 Y120.558
G0 X101.738 Y116.655
G0 X101.563 Y116.655
G1 F2220 X112.793 Y116.655 E135.07669
G0 F9000 X112.624 Y116.698
G0 X109.935 Y121.619
G0 X109.989 Y121.785
G1 F2220 X109.989 Y107.488 E136.50639
G0 F9000 X110.031 Y107.658
G0 X114.161 Y106.625
G0 X113.374 Y103.424
G0 X113.225 Y103.323
