;FLAVOR:UltiGCode
;TIME:739       
;MATERIAL:3034      
;MATERIAL2:0         

;Layer count: 81
;LAYER:0
M107
G0 F9000 X89.207 Y100.514 Z0.300
;TYPE:SKIRT
G1 F1800 X101.943 Y100.513 E1.91040
G1 X103.314 Y100.261 E2.11950
G1 X104.907 Y100.470 E2.36049
G1 X104.907 Y100.405 E2.37024
G1 X114.683 Y100.108 E3.83732
G1 X115.664 Y99.617 E4.00187
G1 X117.636 Y99.336 E4.30066
G1 X119.130 Y99.087 E4.52785
G1 X120.644 Y99.087 E4.75495
G1 X123.135 Y99.711 E5.14015
G1 X124.054 Y100.170 E5.29423
G1 X125.326 Y100.286 E5.48583
G1 X125.983 Y99.958 E5.59597
G1 X129.505 Y99.687 E6.12584
G1 X130.844 Y99.687 E6.32669
G1 X133.335 Y100.311 E6.71188
G1 X134.783 Y101.034 E6.95465
G1 X136.297 Y101.791 E7.20856
G1 X136.726 Y102.220 E7.29956
G1 X141.307 Y102.603 E7.98911
G1 X141.307 Y112.073 E9.40961
G1 X141.107 Y112.273 E9.45203
G1 X141.107 Y116.073 E10.02203
G1 X140.907 Y116.273 E10.06446
G1 X140.907 Y120.073 E10.63446
G1 X140.707 Y120.273 E10.67689
G1 X140.707 Y126.387 E11.59399
G1 X136.583 Y126.387 E12.21259
G1 X116.707 Y125.643 E15.19608
G1 X116.707 Y124.521 E15.36438
G1 X104.907 Y124.320 E17.13463
G1 X104.907 Y123.787 E17.21458
G1 X88.707 Y123.787 E19.64458
G1 X88.707 Y111.856 E21.43423
G1 X92.921 Y111.672 E22.06693
G1 X89.207 Y111.671 E22.62403
G1 X89.207 Y100.514 E24.29758
G10
G0 F9000 X93.207 Y104.514
;TYPE:WALL-INNER
G11
G1 F1800 X103.447 Y104.513 E25.83358
G1 X103.541 Y104.325 E25.86511
G1 X104.975 Y104.513 E26.08205
G1 X108.013 Y104.514 E26.53775
G1 X108.013 Y104.526 E26.53955
G1 X108.021 Y105.812 E26.73246
G1 X109.486 Y107.205 E27.03569
G1 X110.593 Y109.253 E27.38490
G1 X111.011 Y111.532 E27.73245
G1 X110.820 Y112.979 E27.95138
G1 X109.434 Y111.120 E28.29920
G1 X108.408 Y109.766 E28.55403
G1 X106.844 Y107.672 E28.94607
G1 X93.207 Y107.672 E30.99162
G1 X93.207 Y104.514 E31.46532
G0 F9000 X92.707 Y104.014
;TYPE:WALL-OUTER
G1 F1800 X103.138 Y104.013 E33.02997
G1 X103.227 Y103.836 E33.05968
G1 X103.406 Y103.803 E33.08699
G1 X105.008 Y104.013 E33.32934
G1 X108.513 Y104.014 E33.85509
G1 X108.513 Y104.026 E33.85689
G1 X108.521 Y105.597 E34.09254
G1 X109.887 Y106.896 E34.37530
G1 X111.062 Y109.068 E34.74572
G1 X111.071 Y109.084 E34.74847
G1 X111.514 Y111.504 E35.11750
G1 X111.517 Y111.520 E35.11995
G1 X111.201 Y113.910 E35.48157
G1 X111.082 Y114.160 E35.52310
G1 X109.034 Y111.420 E36.03622
G1 X108.009 Y110.068 E36.29071
G1 X106.593 Y108.172 E36.64567
G1 X92.707 Y108.172 E38.72857
G1 X92.707 Y104.014 E39.35227
G0 F9000 X93.728 Y104.688
;TYPE:FILL
G1 F1800 X96.535 Y107.495 E39.94773
G0 F9000 X95.828 Y107.495
G1 F1800 X93.381 Y105.049 E40.46671
G0 F9000 X93.381 Y105.756
G1 F1800 X95.121 Y107.495 E40.83571
G0 F9000 X93.381 Y106.463
G1 F1800 X94.414 Y107.495 E41.05474
G0 F9000 X93.381 Y107.170
G1 F1800 X93.707 Y107.495 E41.12379
G0 F9000 X94.435 Y104.688
G1 F1800 X97.242 Y107.495 E41.71924
G0 F9000 X97.949 Y107.495
G1 F1800 X95.142 Y104.688 E42.31470
G0 F9000 X95.849 Y104.688
G1 F1800 X98.656 Y107.495 E42.91015
G0 F9000 X99.364 Y107.495
G1 F1800 X96.556 Y104.688 E43.50571
G0 F9000 X97.263 Y104.688
G1 F1800 X100.071 Y107.495 E44.10127
G0 F9000 X100.778 Y107.495
G1 F1800 X97.971 Y104.688 E44.69673
G0 F9000 X98.677 Y104.687
G1 F1800 X101.485 Y107.495 E45.29239
G0 F9000 X102.192 Y107.495
G1 F1800 X99.384 Y104.687 E45.88806
G0 F9000 X100.091 Y104.687
G1 F1800 X102.899 Y107.495 E46.48373
G0 F9000 X103.606 Y107.495
G1 F1800 X100.798 Y104.687 E47.07939
G0 F9000 X101.505 Y104.687
G1 F1800 X104.313 Y107.495 E47.67506
G0 F9000 X105.020 Y107.495
G1 F1800 X102.212 Y104.687 E48.27073
G0 F9000 X102.920 Y104.687
G1 F1800 X105.728 Y107.495 E48.86639
G0 F9000 X106.435 Y107.495
G1 F1800 X103.579 Y104.639 E49.47224
G0 F9000 X104.240 Y104.593
G1 F1800 X110.756 Y111.109 E50.85450
G0 F9000 X110.792 Y111.852
G1 F1800 X108.412 Y109.472 E51.35937
G0 F9000 X109.653 Y107.885
G1 F1800 X106.456 Y104.688 E52.03756
G0 F9000 X105.749 Y104.688
G1 F1800 X110.437 Y109.376 E53.03203
G0 F9000 X110.596 Y110.242
G1 F1800 X105.042 Y104.688 E54.21021
G0 F9000 X107.163 Y104.688
G1 F1800 X107.843 Y105.368 E54.35446
G0 F9000 X110.528 Y112.296
G1 F1800 X110.646 Y112.414 E54.37949
G10
G0 F9000 X112.462 Y111.404
;TYPE:SUPPORT
G11
G1 F1800 X111.979 Y108.765 E54.78192
G1 X111.928 Y108.673 E54.79770
G1 X111.903 Y108.627 E54.80555
G1 X110.652 Y106.313 E55.20013
G1 X109.648 Y105.360 E55.40777
G1 X110.361 Y103.491 E55.70783
G1 X115.335 Y103.341 E56.45427
G1 X115.784 Y103.190 E56.52532
G1 X116.647 Y102.759 E56.67002
G1 X118.147 Y102.545 E56.89730
G1 X119.402 Y102.337 E57.08811
G1 X120.244 Y102.337 E57.21441
G1 X122.000 Y102.777 E57.48596
G1 X123.152 Y103.352 E57.67909
G1 X125.857 Y103.599 E58.08653
G1 X125.857 Y103.634 E58.09178
G1 X125.987 Y103.590 E58.11236
G1 X126.866 Y103.150 E58.25981
G1 X129.635 Y102.937 E58.67639
G1 X130.444 Y102.937 E58.79774
G1 X132.201 Y103.377 E59.06942
G1 X134.370 Y104.461 E59.43314
G1 X135.269 Y105.360 E59.62385
G1 X138.057 Y105.593 E60.04351
G1 X138.057 Y110.727 E60.81361
G1 X137.857 Y110.927 E60.85603
G1 X137.857 Y114.727 E61.42603
G1 X137.657 Y114.927 E61.46846
G1 X137.657 Y118.727 E62.03846
G1 X137.457 Y118.927 E62.08089
G1 X137.457 Y123.167 E62.71689
G1 X119.957 Y122.512 E65.34372
G1 X119.957 Y121.325 E65.52177
G1 X108.157 Y121.125 E67.29203
G1 X108.157 Y120.537 E67.38023
G1 X91.957 Y120.537 E69.81023
G1 X91.957 Y114.967 E70.64573
G1 X95.796 Y114.800 E71.22212
G1 X95.796 Y114.781 E71.22497
G1 X103.638 Y114.537 E72.40184
G1 X105.646 Y114.537 E72.70304
G1 X106.657 Y115.548 E72.91751
G1 X106.657 Y115.747 E72.94736
G1 X107.257 Y116.348 E73.07474
G1 X107.257 Y116.547 E73.10459
G1 X107.857 Y117.148 E73.23198
G1 X107.857 Y117.346 E73.26168
G1 X108.107 Y117.597 E73.31482
G1 X110.601 Y115.102 E73.84398
G1 X111.262 Y115.984 E74.00931
G1 X111.556 Y115.371 E74.11129
G1 X112.115 Y114.251 E74.29905
G1 X112.479 Y111.492 E74.71649
G1 X112.462 Y111.404 E74.72993
G0 F9000 X112.126 Y109.989
G1 F1800 X138.132 Y109.989 E78.63083
G0 F9000 X137.957 Y109.989
G0 X136.638 Y105.574
G0 X136.653 Y105.401
G1 F1800 X136.653 Y123.212 E81.30248
G0 F9000 X136.660 Y123.039
G0 X137.557 Y116.655
G0 X137.732 Y116.655
G1 F1800 X108.943 Y116.655 E85.62083
G0 F9000 X107.471 Y116.655
G1 F1800 X91.882 Y116.655 E87.95918
G0 F9000 X92.057 Y116.655
G0 X96.661 Y114.854
G0 X96.657 Y114.678
G1 F1800 X96.657 Y120.612 E88.84928
G0 F9000 X96.657 Y120.437
G0 X103.323 Y120.437
G0 X103.323 Y120.612
G1 F1800 X103.323 Y114.471 E89.77043
G0 F9000 X103.329 Y114.646
G0 X108.107 Y117.797
G0 X110.112 Y115.731
G0 X109.989 Y115.608
G1 F1800 X109.989 Y121.231 E90.61388
G0 F9000 X109.991 Y121.058
G0 X116.658 Y121.171
G0 X116.655 Y121.344
G1 F1800 X116.655 Y102.681 E93.41333
G0 F9000 X116.678 Y102.856
G0 X115.370 Y103.537
G0 X113.447 Y103.498
G0 X113.443 Y103.323
G1 F1800 X123.673 Y103.323 E94.94783
G0 F9000 X123.321 Y103.292
G1 F1800 X123.321 Y122.712 E97.86083
G0 F9000 X123.327 Y122.540
G0 X129.994 Y122.789
G0 X129.987 Y122.962
G1 F1800 X129.987 Y102.862 E100.87583
G0 F9000 X129.987 Y103.037
G0 X132.185 Y103.480
G0 X132.264 Y103.323
G1 F1800 X126.351 Y103.323 E101.76278
G0 F9000 X126.429 Y103.480
G0 X125.710 Y103.733
G0 X110.152 Y104.318
G0 X109.989 Y104.256
G1 F1800 X109.989 Y105.787 E101.99243
;LAYER:1
M106 S255
G0 F9000 X109.493 Y107.198 Z0.500
;TYPE:WALL-INNER
G1 F2220 X110.591 Y109.227 E102.22314
G1 X110.602 Y109.246 E102.22533
G1 X111.020 Y111.525 E102.45703
G1 X110.717 Y113.819 E102.68843
G1 X109.715 Y115.908 E102.92011
G1 X109.397 Y116.242 E102.96623
G1 X109.384 Y116.224 E102.96845
G1 X108.826 Y116.811 E103.04944
G1 X105.820 Y112.803 E103.55044
G1 X102.337 Y112.926 E103.89896
G1 X93.213 Y113.227 E104.81185
G1 X93.213 Y112.812 E104.85335
G1 X93.207 Y104.507 E105.68385
G1 X102.323 Y104.506 E106.59545
G1 X103.434 Y104.302 E106.70841
G1 X104.982 Y104.506 E106.86455
G1 X108.013 Y104.507 E107.16765
G1 X108.013 Y104.520 E107.16895
G1 X108.021 Y105.798 E107.29675
G1 X109.459 Y107.165 E107.49516
G1 X109.493 Y107.198 E107.49990
G0 F9000 X109.896 Y106.891
;TYPE:WALL-OUTER
G1 F2220 X111.031 Y108.989 E107.73843
G1 X111.080 Y109.079 E107.74868
G1 X111.526 Y111.513 E107.99613
G1 X111.209 Y113.915 E108.23841
G1 X111.201 Y113.965 E108.24348
G1 X110.132 Y116.196 E108.49087
G1 X109.339 Y117.027 E108.60573
G1 X109.327 Y117.010 E108.60781
G1 X108.781 Y117.585 E108.68711
G1 X105.577 Y113.312 E109.22119
G1 X92.713 Y113.744 E110.50831
G1 X92.713 Y113.312 E110.55151
G1 X92.707 Y104.007 E111.48201
G1 X102.278 Y104.006 E112.43911
G1 X103.371 Y103.805 E112.55024
G1 X103.421 Y103.796 E112.55533
G1 X105.015 Y104.006 E112.71610
G1 X108.513 Y104.007 E113.06590
G1 X108.513 Y104.020 E113.06720
G1 X108.521 Y105.583 E113.22350
G1 X109.805 Y106.804 E113.40069
G1 X109.896 Y106.891 E113.41328
G0 F9000 X109.375 Y107.352
;TYPE:FILL
G1 F2220 X104.040 Y112.687 E114.16776
G0 F9000 X103.309 Y112.712
G1 F2220 X109.026 Y106.994 E114.97634
G0 F9000 X108.663 Y106.650
G1 F2220 X102.577 Y112.736 E115.83703
G0 F9000 X101.846 Y112.760
G1 F2220 X108.301 Y106.305 E116.74991
G0 F9000 X107.939 Y105.960
G1 F2220 X101.114 Y112.785 E117.71511
G0 F9000 X100.382 Y112.810
G1 F2220 X107.842 Y105.349 E118.77018
G0 F9000 X107.804 Y104.681
G1 F2220 X99.650 Y112.835 E119.92333
G0 F9000 X98.918 Y112.859
G1 F2220 X107.096 Y104.681 E121.07987
G0 F9000 X106.389 Y104.681
G1 F2220 X98.187 Y112.883 E122.23981
G0 F9000 X97.455 Y112.908
G1 F2220 X105.682 Y104.681 E123.40329
G0 F9000 X104.975 Y104.681
G1 F2220 X96.723 Y112.933 E124.57029
G0 F9000 X95.991 Y112.958
G1 F2220 X104.350 Y104.599 E125.75244
G0 F9000 X103.726 Y104.516
G1 F2220 X95.260 Y112.982 E126.94971
G0 F9000 X94.528 Y113.006
G1 F2220 X102.972 Y104.563 E128.14380
G0 F9000 X102.148 Y104.680
G1 F2220 X93.797 Y113.031 E129.32481
G0 F9000 X93.387 Y112.734
G1 F2220 X101.441 Y104.680 E130.46382
G0 F9000 X100.734 Y104.680
G1 F2220 X93.387 Y112.026 E131.50277
G0 F9000 X93.386 Y111.320
G1 F2220 X100.027 Y104.680 E132.44188
G0 F9000 X99.320 Y104.680
G1 F2220 X93.386 Y110.614 E133.28107
G0 F9000 X93.385 Y109.907
G1 F2220 X98.613 Y104.680 E134.02035
G0 F9000 X97.906 Y104.680
G1 F2220 X93.385 Y109.200 E134.65965
G0 F9000 X93.384 Y108.494
G1 F2220 X97.198 Y104.680 E135.19903
G0 F9000 X96.491 Y104.680
G1 F2220 X93.384 Y107.787 E135.63842
G0 F9000 X93.384 Y107.080
G1 F2220 X95.783 Y104.680 E135.97777
G0 F9000 X95.076 Y104.680
G1 F2220 X93.383 Y106.374 E136.21726
G0 F9000 X93.382 Y105.667
G1 F2220 X94.369 Y104.680 E136.35684
G0 F9000 X93.382 Y104.960
G1 F2220 X93.662 Y104.680 E136.39644
G0 F9000 X104.772 Y112.662
G1 F2220 X109.624 Y107.811 E137.08255
G0 F9000 X109.873 Y108.269
G1 F2220 X105.503 Y112.638 E137.70049
G0 F9000 X106.042 Y112.806
G1 F2220 X110.121 Y108.728 E138.27728
G0 F9000 X110.369 Y109.187
G1 F2220 X106.346 Y113.210 E138.84621
G0 F9000 X106.648 Y113.615
G1 F2220 X110.515 Y109.748 E139.39309
G0 F9000 X110.624 Y110.346
G1 F2220 X106.952 Y114.018 E139.91239
G0 F9000 X107.255 Y114.422
G1 F2220 X110.734 Y110.943 E140.40439
G0 F9000 X110.839 Y111.545
G1 F2220 X107.558 Y114.827 E140.86847
G0 F9000 X107.861 Y115.230
G1 F2220 X110.732 Y112.359 E141.27449
G0 F9000 X110.625 Y113.173
G1 F2220 X108.164 Y115.635 E141.62260
G0 F9000 X108.467 Y116.039
G1 F2220 X110.371 Y114.134 E141.89194
G0 F9000 X109.719 Y115.493
G1 F2220 X108.769 Y116.443 E142.02629
G10
G0 F9000 X110.976 Y116.630
;TYPE:SUPPORT
G11
G1 F2220 X112.119 Y114.246 E142.29067
G1 X112.151 Y114.037 E142.31181
G1 X112.487 Y111.488 E142.56892
G1 X111.989 Y108.766 E142.84564
G1 X111.866 Y108.537 E142.87163
G1 X110.660 Y106.307 E143.12515
G1 X109.662 Y105.357 E143.26294
G1 X110.376 Y103.490 E143.46283
G1 X115.335 Y103.341 E143.95895
G1 X115.784 Y103.190 E144.00632
G1 X116.647 Y102.759 E144.10278
G1 X118.147 Y102.545 E144.25430
G1 X119.402 Y102.337 E144.38152
G1 X120.244 Y102.337 E144.46572
G1 X122.000 Y102.777 E144.64674
G1 X123.152 Y103.352 E144.77550
G1 X125.857 Y103.599 E145.04712
G1 X125.857 Y103.634 E145.05062
G1 X125.987 Y103.590 E145.06435
G1 X126.866 Y103.150 E145.16264
G1 X129.635 Y102.937 E145.44036
G1 X130.444 Y102.937 E145.52126
G1 X132.201 Y103.377 E145.70239
G1 X134.370 Y104.461 E145.94487
G1 X135.269 Y105.360 E146.07201
G1 X138.057 Y105.593 E146.35178
G1 X138.057 Y110.727 E146.86518
G1 X137.857 Y110.927 E146.89346
G1 X137.857 Y114.727 E147.27346
G1 X137.657 Y114.927 E147.30175
G1 X137.657 Y118.727 E147.68175
G1 X137.457 Y118.927 E147.71003
G1 X137.457 Y123.167 E148.13403
G1 X119.957 Y122.512 E149.88526
G1 X119.957 Y121.325 E150.00396
G1 X109.209 Y121.142 E151.07891
G1 X108.453 Y119.333 E151.27497
G1 X110.917 Y116.748 E151.63209
G1 X110.976 Y116.630 E151.64529
G0 F9000 X110.880 Y116.655
G1 F2220 X137.732 Y116.655 E154.33049
G0 F9000 X137.557 Y116.655
G0 X136.660 Y123.039
G0 X136.653 Y123.212
G1 F2220 X136.653 Y105.401 E156.11159
G0 F9000 X136.638 Y105.574
G0 X137.957 Y109.989
G0 X138.132 Y109.989
G1 F2220 X112.136 Y109.989 E158.71119
G0 F9000 X112.309 Y109.959
G0 X112.042 Y108.443
G0 X110.818 Y106.186
G0 X110.109 Y105.646
G0 X109.989 Y105.772
G1 F2220 X109.989 Y104.292 E158.85919
G0 F9000 X110.152 Y104.353
G0 X113.440 Y103.498
G0 X113.436 Y103.323
G1 F2220 X123.673 Y103.323 E159.88289
G0 F9000 X123.321 Y103.292
G1 F2220 X123.321 Y122.712 E161.82489
G0 F9000 X123.327 Y122.540
G0 X129.994 Y122.789
G0 X129.987 Y122.962
G1 F2220 X129.987 Y102.862 E163.83489
G0 F9000 X129.987 Y103.037
G0 X132.185 Y103.480
G0 X132.264 Y103.323
G1 F2220 X126.351 Y103.323 E164.42619
G0 F9000 X126.429 Y103.480
G0 X125.710 Y103.733
G0 X123.098 Y103.544
G0 X116.678 Y102.856
G0 X116.655 Y102.681
G1 F2220 X116.655 Y121.343 E166.29239
G0 F9000 X116.658 Y121.170
G0 X109.991 Y121.057
G0 X109.989 Y121.230
G1 F2220 X109.989 Y117.613 E166.65409
;LAYER:2
G0 F9000 X109.104 Y116.770 Z0.700
G0 X108.019 Y117.691
;TYPE:WALL-INNER
G1 F2700 X108.019 Y119.127 E166.79769
G1 X102.029 Y119.327 E167.39702
G1 X93.212 Y119.325 E168.27872
G1 X93.212 Y117.952 E168.41602
G1 X93.207 Y104.499 E169.76132
G1 X102.344 Y104.498 E170.67502
G1 X103.393 Y104.305 E170.78168
G1 X103.444 Y104.296 E170.78686
G1 X104.979 Y104.498 E170.94168
G1 X108.013 Y104.499 E171.24508
G1 X108.013 Y104.514 E171.24658
G1 X108.021 Y105.784 E171.37359
G1 X109.409 Y107.104 E171.56513
G1 X109.506 Y107.198 E171.57864
G1 X110.560 Y109.144 E171.79995
G1 X110.611 Y109.239 E171.81073
G1 X111.029 Y111.518 E172.04243
G1 X110.733 Y113.758 E172.26838
G1 X110.725 Y113.814 E172.27404
G1 X109.725 Y115.899 E172.50528
G1 X108.019 Y117.691 E172.75270
G0 F9000 X108.519 Y117.891
;TYPE:WALL-OUTER
G1 F2700 X108.519 Y119.611 E172.92470
G1 X102.046 Y119.827 E173.57236
G1 X92.712 Y119.825 E174.50576
G1 X92.712 Y118.452 E174.64306
G1 X92.707 Y103.999 E176.08836
G1 X102.299 Y103.998 E177.04756
G1 X103.301 Y103.814 E177.14943
G1 X103.432 Y103.789 E177.16277
G1 X105.012 Y103.998 E177.32215
G1 X108.513 Y103.999 E177.67225
G1 X108.513 Y104.014 E177.67375
G1 X108.521 Y105.569 E177.82925
G1 X109.903 Y106.883 E178.01995
G1 X111.001 Y108.909 E178.25039
G1 X111.089 Y109.072 E178.26891
G1 X111.535 Y111.506 E178.51636
G1 X111.228 Y113.828 E178.75058
G1 X111.209 Y113.961 E178.76402
G1 X110.174 Y116.118 E179.00326
G1 X110.139 Y116.191 E179.01136
G1 X108.519 Y117.891 E179.24619
G0 F9000 X107.956 Y117.502
;TYPE:FILL
G1 F2700 X95.127 Y104.673 E181.06048
G0 F9000 X95.834 Y104.673
G1 F2700 X108.301 Y117.140 E182.82358
G0 F9000 X108.646 Y116.777
G1 F2700 X96.541 Y104.673 E184.53542
G0 F9000 X97.248 Y104.673
G1 F2700 X108.991 Y116.415 E186.19606
G0 F9000 X109.335 Y116.053
G1 F2700 X97.955 Y104.673 E187.80543
G0 F9000 X98.662 Y104.673
G1 F2700 X109.646 Y115.657 E189.35880
G0 F9000 X109.875 Y115.179
G1 F2700 X99.369 Y104.673 E190.84458
G0 F9000 X100.076 Y104.673
G1 F2700 X110.105 Y114.701 E192.26282
G0 F9000 X110.334 Y114.223
G1 F2700 X100.783 Y104.673 E193.61347
G0 F9000 X101.491 Y104.673
G1 F2700 X110.559 Y113.741 E194.89587
G0 F9000 X110.640 Y113.115
G1 F2700 X102.198 Y104.673 E196.08975
G0 F9000 X102.819 Y104.587
G1 F2700 X110.724 Y112.492 E197.20769
G0 F9000 X110.807 Y111.867
G1 F2700 X103.417 Y104.477 E198.25279
G0 F9000 X104.221 Y104.575
G1 F2700 X110.781 Y111.135 E199.18052
G0 F9000 X110.622 Y110.269
G1 F2700 X105.027 Y104.673 E199.97184
G0 F9000 X105.734 Y104.673
